jon06041/MDL-PCR-Analyzer/test_files/AcBVPanelPCR3_2576724_CFX366953 -  Quantification Amplification Results_Texas Red.csv
,Cycle,A1,A2,A3,A4,A5,A6,A7,A8,A9,A10,A11,A12,A13,A14,A15,A16,A17,A18,B1,B2,B3,B4,B5,B6,B7,B8,B9,B10,B11,B12,B13,B14,B15,B16,B17,B18,C1,C2,C3,C4,C5,C6,C7,C8,C9,C10,C11,C12,C13,C14,C15,C16,C17,C18,D1,D2,D3,D4,D5,D6,D7,D8,D9,D10,D11,D12,D13,D14,D15,D16,D17,D18,E1,E2,E3,E4,E5,E6,E7,E8,E9,E10,E11,E12,E13,E14,E15,E16,E17,E18,F1,F2,F3,F4,F5,F6,F7,F8,F9,F10,F11,F12,F13,F14,F15,F16,F17,G1,G2,G3,G4,G5,G6,G7,G8,G9,G10,G11,G12,G13,G14,G15,G16,G17,H1,H2,H3,H4,H5,H6,H7,H8,H9,H10,H11,H12,H13,H14,H15,H16,H17,I1,I2,I3,I4,I5,I6,I7,I8,I9,I10,I11,I12,I13,I14,I15,I16,I17,J1,J2,J3,J4,J5,J6,J7,J8,J9,J10,J11,J12,J13,J14,J15,J16,J17,K1,K2,K3,K4,K5,K6,K7,K8,K9,K10,K11,K12,K13,K14,K15,K16,K17,L1,L2,L3,L4,L5,L6,L7,L8,L9,L10,L11,L12,L13,L14,L15,L16,L17,M1,M2,M3,M4,M5,M6,M7,M8,M9,M10,M11,M12,M13,M14,M15,M16,M17,N1,N2,N3,N4,N5,N6,N7,N8,N9,N10,N11,N12,N13,N14,N15,N16,N17,O1,O2,O3,O4,O5,O6,O7,O8,O9,O10,O11,O12,O13,O14,O15,O16,O17,P1,P2,P3,P4,P5,P6,P7,P8,P9,P10,P11,P12,P13,P14,P15,P16,P17
,1,-4.66129082903171,5.86531952196856,8.41486956510198,-5.50785163525597,-3.94537462744938,-4.3117008082445,10.1685388572405,-10.0845968467825,-3.51896157427609,-0.75269400880552,-13.2043263729065,0.150498957224045,1.33221339522242,-4.65156650985091,-6.67320198511743,2.70954918227562,-9.14468495878464,1.66084329763589,8.40576504851151,3.58504172881385,6.83011816209137,11.0629198927691,27.9044596089761,17.2537845015841,8.13326222152728,9.82831123989172,10.7397771597057,17.0220952043469,12.8325558884389,20.3594250848914,6.90169644077241,15.9477259400819,9.35776138105712,14.1841868294473,13.0457423423236,21.6227653287124,-4.93133941214955,9.1332821990768,16.9360699843082,21.7063533193782,22.2102621423005,-2.15544633723721,15.4392549344284,0.333628534315267,12.3923047145418,-1.74391520261861,16.0090000512414,17.7001962580357,1.63471734583254,10.0837023307668,9.16146708745373,20.4584738477147,9.8400437412165,10.0203148489541,1.96042100809564,9.37852574154977,3.19582289705431,5.51145671296672,9.56656342536235,19.2061281098891,15.7165276008318,21.8511713137368,21.4694109788443,18.6375440016104,23.0557459436923,16.5467979845012,19.0995414959175,18.914159529415,25.3693199943841,19.7086976713963,22.7702674086963,17.3589338715192,4.97447169833458,21.0825363375461,13.9465267830678,4.2867597623449,13.2702008690317,17.8151071783559,22.3620633174514,2.33200634987406,11.4701038486664,26.2229705762588,6.12680291319111,8.24015048900901,7.97496271509681,19.9709066200844,-2.46864225990885,18.6319409052849,9.08756406541079,18.6652533519555,-0.510444517864016,8.99004608279665,5.50428887983435,9.44237993041497,9.41362098219088,20.1108864535868,16.6678704447072,18.0183598370327,13.8759776650018,17.1047065754742,55.391561813572,23.0833880717637,21.3017891751874,16.7244937696546,19.3918259732236,19.8480216960047,19.5672314636513,0.957316041445665,9.38061466803629,20.4449773555302,11.0675227156653,14.3405380682207,10.9357519234641,19.6185384046385,15.0500162398139,7.52165030174956,8.9996203322371,9.79258157329878,23.5847627089106,33.8012465526954,11.096359925562,15.2439134464971,11.2574353929745,15.6964363683337,3.98227112882523,13.6148564111963,16.9144651240863,24.953439526058,27.8970634254893,24.5139037866675,26.9338669107528,24.7257638315555,27.955433791059,24.1133695135613,32.2785907083194,22.0053223715345,31.9393814296477,19.3904964779099,18.7055267668948,17.0318535607771,16.8022511461827,-2.35438007642279,14.4508842388723,17.9834829857941,10.6468946870841,35.0558463460993,19.2543157045106,18.9026671964593,18.4506279138063,22.79970710107,9.79844210218562,21.9368189520856,14.6610669587785,16.6091898249997,9.39021906307698,18.9307306730529,8.06088697803307,16.2627710562215,-1.64237369648345,15.5503767243431,14.120393194165,23.8299580227972,30.8412252718413,26.7158742496335,24.0351324441563,23.7080737943602,32.3468571479261,31.7751508316801,27.2378931257758,21.8309005137744,24.7861637258657,18.9120614242329,24.7803408423556,22.4581620052099,23.1338069822841,5.23938853455275,18.7658589168632,18.8837194312127,12.3775916048389,22.7518173294843,25.2859398004266,17.8175463145362,21.6015090780343,7.53891759526778,12.0154569473734,24.666738602356,5.63306754816085,22.8182649978116,22.1603807033539,6.69169910150231,3.00413577491963,10.04252473219,0.84100412046746,4.26503370527098,11.5232597499789,16.9604415098661,29.7312522014736,32.3191238175687,20.1385074631007,27.045116818073,33.5845777469012,25.4908044920662,32.0484603271311,29.1710503243062,31.2795191572545,21.8644594508296,33.5790558536346,20.9940483007526,19.7201300392821,-0.10740055757924,18.163133127212,18.4096734981849,7.89206584963176,24.8488635934991,14.6728179011616,9.27355483395468,12.4271870790985,17.1314259686155,6.32192488691999,5.32255228742224,23.7517424601506,11.0306108212339,6.31570043497459,26.0604029755609,24.1049294625182,7.47741082764151,2.4204107866035,13.5820428953748,25.0007443261779,23.9607407357694,25.6569495447975,31.4652601364801,20.851221776506,25.5671709852968,32.5485276357513,33.2381112810795,26.7811407350832,34.2500088130946,37.1048622440749,29.1330613619889,39.0365272998088,26.7724240841635,31.1055000091487,-1.66744972757624,15.7171069313281,17.9975838549312,14.0273896213175,23.5931386881357,6.52438180609761,9.97131170257353,18.8822257825705,6.52689554867811,15.4404299410103,25.876233435964,18.7127774390697,25.9850923254335,27.5540272550297,28.7710578164233,22.3720074546322,22.238502249751,23.9234590539472,-3.0675399512229,3.1251142401893,0.221187215002374,0.763112688481215,7.30482762783231,8.39898738749253,9.185300805314,3.04985578203241,5.62576638920109,7.53715020276513,7.03597686653848,11.2990754980965,0.872811773580906,7.20145763031724,11.4615764371711,3.16446980492401
,2,-3.95241413738677,-0.15646311094315,2.50890680635302,-1.98832251381373,-7.12547308034664,1.42429602742641,9.542975476023,-7.19732317230228,-1.28068179635056,3.4565894182042,-11.6968855389077,-0.805717117452787,4.33529763948127,-4.98025856874756,-3.68544911167146,1.53069501935806,-4.37238288115668,1.59874463518872,9.91670678806531,0.942195803969753,1.84885895928801,6.94333056880441,16.2977276049851,3.74202252397936,4.70357930801765,4.1035223951867,-3.49435033033433,12.4602444773764,-4.39919965523177,10.9647629741116,-2.28935381625888,5.8211867823934,-0.448939686783888,4.15156536088671,5.10970976409453,6.34546831638272,0.583403144933072,4.38122912921108,6.93182776155982,14.8922634852343,5.82236518406899,-9.55873241796189,-9.39345736719042,-10.0360508167937,2.12248599004306,-8.30769713953077,5.88221193322943,-14.5663628168427,-11.5938546585076,-1.23299762129864,-6.60720029874074,13.4101332091846,-3.19524626804059,-5.95999483102742,3.65126098174096,8.36696582205059,6.45912882608127,-0.444907978209358,3.21701594707156,2.69765026278947,6.78479962398842,12.8255561617411,8.55852931465461,9.17372809797689,7.53334789937571,6.9104294926301,11.054709013199,6.31927525260789,12.2425915814192,4.31173273511786,9.05670780145101,3.96199765627716,2.14915427892902,9.37225676759135,5.40394797627368,2.10313872305369,10.4518036376226,-4.77333779856872,13.1989615021766,-3.33602333851559,-2.60151055930373,21.2186430427278,-4.8897198294394,-4.17064807253655,14.1673175261885,2.92112843106088,0.0482252333049473,9.41717132193207,-7.97572841598549,5.18722382750821,-0.871066981471358,1.81528380697864,-4.61475650130205,2.27579669155421,-1.26707181702477,11.0284204963655,3.76283823721633,8.24402638414449,8.91891150818219,5.35681405885953,23.8439414387503,7.37892681725225,3.3401975276297,7.61015311874553,5.70767994122934,7.38893178877515,4.4193630372547,-0.253777338560212,6.57243065277953,7.82662535897816,3.33942489066021,4.00572377866683,5.60444408231933,-1.08255954026527,0.621690982545715,-6.4449530072784,4.29210010328416,3.78528159682264,2.96558578295299,11.8184597756922,-8.82012468196262,6.85580381930595,1.23935853120383,5.71763626016173,-2.27686428945117,5.71466429928705,8.19712298089144,5.66679021074515,12.386799166778,8.13273819371534,10.6574430717383,10.6362915315317,9.79984710005192,8.53379964672968,14.3753223263684,10.1152246202928,14.1051112265045,11.8652383305071,9.37060575542091,6.40272383305955,2.49981785903265,0.854757570610673,8.98506456640143,7.94784083414879,0.248988724889841,18.0145060581663,5.61766950170158,-5.16338649463432,13.67644989166,-3.32445057441237,0.00515428508833793,6.29474290952385,3.92815215378278,-4.86111896283501,-1.98023223217751,4.62690762214743,2.25436364414509,4.60301965047574,-7.15250440041336,1.56321246512198,1.37170135133829,14.810851496904,14.1750621949905,14.8872085621383,12.1207386862397,9.56191423912651,20.9217243868661,12.2178096000703,13.0501259188841,7.37183145849122,10.3427766880427,3.31759157744045,0.71517280248554,10.2634531023732,6.2826302825988,1.13705869758996,7.93543997481265,5.12763749146598,-0.301762584523203,-2.18951507083102,6.53730648489227,-1.99502432653844,1.51094097378109,-11.2115287182596,-1.32101280568077,4.16244077270267,-14.094897051059,-3.88996361833961,12.0238245129931,-8.30367230620504,3.06615073535113,1.292455901822,3.09610875544058,-3.44738170050277,3.1333221067398,4.24668377685475,13.8249544810169,20.9009359607494,10.0649145648335,11.5351932121921,20.5989621557278,9.62432219335187,6.80872549031892,15.1676757314849,8.75629241152501,7.11577307844254,14.6293014816783,6.25314743428635,10.7570087722506,0.065459368277061,1.74225238071494,2.95971883500806,-4.87427011617683,5.98253343526403,-1.14525912927638,4.62735126032294,-6.23065923616332,10.8870334397157,-0.517542248929203,-6.31733936739329,8.96548228379197,-7.32210020168532,-3.05564299463913,8.20565812042878,3.82220494157082,-0.669074864126742,2.71818043957455,4.57284062996996,9.04320720170108,9.58079369624875,9.2298264485139,12.4282494654035,6.46062006927514,12.86031801535,10.1514690952572,14.6577573466543,10.7118699872435,19.7518424220543,19.3109075439988,7.50162509224401,16.5641732181339,6.72126568131898,12.2070924219747,-2.86547315896451,8.41248076586317,8.28161785292241,0.607847114605647,9.33422420323768,0.653449060718231,0.805746847098817,5.93112500065308,-3.19033262352605,1.12539185093965,10.815714992063,14.3770029563434,18.3069223835278,16.32979520771,14.9714420795285,13.2908801831704,8.95041240564115,7.63621826148346,4.85979585379209,8.19871803807291,2.77472937995026,1.43118273398295,9.47327291949568,12.2016859668688,7.55233297548375,3.85907920383852,6.10343820443086,5.15397974940424,4.90970872962362,13.2515320216608,5.28013248095067,10.1599696372646,8.4688330941317,7.70680944925562
,3,-2.67089736544131,1.12666844857404,3.91724783047493,-6.54777020809706,-6.82544301732059,1.00999936880362,-5.0137827939584,3.13604805542127,2.24179228821367,0.330374576624308,-7.20269454887057,-0.810597594675983,1.54877378654874,-1.5964191796761,0.822071970076195,-3.76294273774329,-2.54572490200553,-1.1164138284721,-3.39553221491269,2.44897553017972,1.9801794800469,4.74146110704805,8.9820248100109,9.04023560613359,1.73516728547702,-2.42775252679166,2.80291517321803,10.229402505227,-8.79943595767054,7.64126753550408,-1.35052337343086,5.24521073045571,-0.926318028904916,1.67479509832492,2.56355061270051,3.8845258054539,0.0281817389700336,2.19432816881408,2.84553827088757,10.6489933761786,2.99868595308953,-10.5239976045009,-5.59007708440731,-4.40105445970676,-12.9108611026718,-1.58553539090235,4.79755831222428,-15.6442115762752,-10.8640798694523,2.91602805805405,-6.99910207347739,11.5227768321456,-5.66884381029467,-6.80484421325673,1.42648873708686,7.24033783824825,6.32698322636043,-2.66516660991329,4.76124299635831,-1.29828992169405,1.96436214115374,11.2689767153656,2.69442503515756,1.58546722076107,1.31315474619942,1.5659171808079,6.48103081749287,0.929796164557501,4.41389926956526,3.95917704137719,4.95944132018212,2.2900600791063,-0.139143040233648,10.6490807364662,2.87219614323385,2.91265508546758,9.86915581849416,-9.4633724058931,9.40045016444219,-6.9855976069216,-1.6448790780737,16.2541482388679,-8.71010678525727,-6.12739050320442,11.526954784696,2.36432069185275,-0.495061569868085,10.7995212512765,-6.56331227292503,1.61745652679019,3.73442302790181,4.24337006311225,-3.16037797197987,1.33441607733721,1.19305257155384,9.00895206025643,5.31901232272457,4.40349019394807,7.3721822722091,5.10779524055806,16.5509591545206,5.30584593913591,3.06582282405088,4.29658100221923,8.34918030562312,4.79313403033711,0.483883868858811,1.50451972773317,3.71638922401689,3.47350306744102,-0.0969492959766285,0.959718091577543,1.1726319536192,0.0225799820582324,4.44579411465566,-6.0412646857435,6.40637397923683,-1.89691418406665,11.6339184226622,6.03086087765087,3.77923325081065,0.702137449812199,-1.919363837942,2.85960754606231,-4.15113726460868,2.98181558167016,2.05080296355891,2.2539348027567,7.11047194781941,0.116937975953078,3.31273158177328,5.80639640593881,6.84731734646994,2.56554395113517,10.460855278151,4.22756385216462,5.63372895363955,1.01931059145909,3.55905776896725,-4.06614225933299,-2.64285318722159,-5.23323002132656,0.0226711570085172,0.229543281940551,-6.22400380378349,8.33999710905618,3.84985803258814,-6.4225132553297,7.30217675104268,-11.5192854176057,-4.53423671128712,2.17461600813658,-8.32709309186293,-4.23331773514019,0.311331383580182,-2.99567917730155,-6.12093152437956,3.96712481438226,-3.34944950988893,-1.18506177846211,2.87513852699385,10.909009536635,4.32930983331153,9.38832579401287,4.99627022962341,5.88531048991354,6.04668170564901,10.0855290653662,2.97803618362514,6.02322895585667,7.04929573251002,5.58526905250255,-0.316478228546657,3.08371290960622,-0.686027132685012,-0.63893708558453,4.85677264696687,3.59611675711494,-5.50027558741431,-0.202253607460534,9.8347549945538,0.815564760358484,2.51863157311482,-12.6237498795549,-2.5631626929121,6.47028606749473,-8.02547096176386,-9.11222051554978,9.82414779634291,-12.5747852288941,6.14354245836375,-1.22130367822137,3.43227916697924,0.881786524514609,5.47069345822274,0.518698457328355,8.07926979197282,5.83565536333026,-1.61274405899394,1.83411280703967,7.00529139063701,3.04899844258716,0.296837921441693,5.75448688839469,9.97014225841031,2.40742362697711,11.3023732224392,2.61045357252897,2.1252292298268,-4.02898188014251,5.47687886131189,5.17568380653847,-2.39528785544962,11.8710704210766,-1.04504771988059,2.41352427778656,2.19517330600956,0.200615509346335,6.52368593294659,-1.84637650217564,17.8079817939256,-8.75908779314705,1.71659028245995,6.73424219499702,3.03980202764933,-3.45353571682836,3.1984751351938,1.45927389725375,7.77632301518679,7.2039788598745,6.67070678382197,7.85327311120591,6.54753913400282,7.7383115521925,3.79811052262494,15.3225836383008,-1.01309686266904,8.93631957565549,11.8566548692966,2.75799108860656,14.1966146735085,6.95297172366827,10.3467160784808,-0.289014887374833,1.60497503719944,2.61230463615766,-0.578486257583791,0.142196793152834,-2.09435607747719,4.90570078740666,11.1673327810026,8.66248818699933,16.4637571959952,11.1284117866526,10.4639984520045,12.9852940579699,13.7741306540643,16.6046243616861,12.0174577021248,3.33953765105662,9.7822055387096,3.15077104279226,8.21656180782293,2.03987733081203,4.82034684714472,9.62982016367732,5.5563466770268,6.82182094275322,2.3773996216446,1.22124284105212,1.88563511186703,8.39073779895489,5.09712033340156,1.21957261730404,8.96956276267201,13.2552857100764,6.14896277670459
,4,-0.197079901493453,6.5669622726582,3.71427404630731,-5.58040702756762,-4.81873218577357,0.501797882938718,-5.51621568928522,8.46063057854599,-7.61414207361804,2.15395876278444,-3.11793194116626,0.597756222432508,6.27831678496932,-0.404832626204552,6.00442006517869,-4.32576229734877,6.35362939288871,1.87118230664237,1.93823447494151,-1.07777380935386,2.37246634224721,1.46325416335958,2.8887309126917,7.08811830863851,1.30481070995893,-2.71073892541881,5.12587674921133,7.7365090590697,-4.11346660685695,12.6075165889483,-1.14724673931642,3.95800821596049,-1.89358729078049,-0.918026143696807,-1.66127886595905,7.51736967434135,-4.39248944270867,0.794376799263773,-3.31074780835888,6.80388911393902,-1.34433338050349,-8.67237710286963,2.01297478024662,-2.58681728448164,-0.636860167501254,-8.90060479283466,-2.66422090332799,-17.4193264215469,-6.83471826493087,3.52810203293529,-11.1724328966329,2.51725005835169,-12.5633572284955,-5.24979820655426,1.71843446524508,2.16075304646438,2.88606381466388,-3.47320052274563,-2.85426404516966,-1.59176741575584,-2.31781837627159,10.1137227222785,0.305449795737786,1.65182106779685,2.2587812119209,2.95635913868091,8.45487557612933,3.25725916472993,4.37764305838664,7.58887654664295,4.39075063995278,6.19980988800853,2.0090852528956,10.5030664903325,1.08142340942095,0.785889232675345,4.92806360998884,-4.38975780232886,5.47163877295907,-1.35118711226096,6.60910470731415,13.2252748757542,-12.8186904185086,5.09107366840544,-5.35955987162106,7.9190299635593,7.24704333625323,-0.843282780804202,4.78260794447806,9.3139451979041,0.96321521226082,-2.16410174742396,2.79268431528726,1.38216385732449,3.64796160450123,11.3467698427257,1.89466692869519,2.44918470443099,2.11837915058823,-2.2846868253655,11.0878189480222,8.44305156510836,1.75333698115719,1.26644125317125,3.6124244881903,3.03065584862634,2.76572999174596,-1.43753377239773,2.22385807047522,8.44365113379536,-3.51921139241358,1.7371074284456,1.62617741868416,-2.69306618592509,-4.53087505889562,6.21762792104983,-9.97867759592918,2.95423318915573,8.83883478284906,3.30168896471059,-3.06496575573465,-0.504487780844102,-9.78327490263746,-8.27230555967299,6.27327990666981,7.05099990093822,1.65280401520795,1.38058081491317,7.97264274162899,3.22641043364911,2.01334229786517,6.16631754336368,5.28434889151686,-1.8689567872525,11.7992389841911,0.842437603982489,1.84110130109684,8.85007790905047,8.7113570227034,-2.49470815177801,2.0278134381706,-1.2410113728306,3.23208318215529,5.54360830944825,-6.45743511564888,7.56231827208785,8.53707531172358,-13.1702261900564,7.5902747526743,-11.7694866236957,0.553447475891971,-0.197418456188643,2.14859845151932,-6.38572375583999,-1.06913822644719,-4.62498933171901,-2.79967415474903,-1.54082204915539,-0.132353916355896,1.2890474345968,-1.13898030943346,5.6956800965072,5.14287329672152,4.36821886738335,0.111664091863986,2.74256050627037,4.67492714990749,-3.16519057384176,6.07422346612793,-1.89474551767353,8.6210541265059,5.62704764585578,-1.45415918428398,5.89789704998066,2.74339863515206,-1.97975912843867,1.92268639535496,3.61200601930477,-5.68520915532054,-7.84274698986428,3.66895761363003,-5.23523131446109,-4.77226803484018,-11.8486961562085,-4.56825565531062,0.486148784926172,-12.6616732968037,-7.00752969163477,5.8189383423346,-8.99698977041271,5.40520506175199,-3.30636439195087,0.40507889678247,-0.797710453765831,-2.08475604251817,-0.393108265840056,8.88197716778996,5.24095681438348,0.228579439253735,0.43710455454584,3.27767012342201,2.00703839212565,0.5588655421966,5.93963304730505,2.27477351237212,6.4591449826894,7.26977641331223,6.30768113290469,1.57406829212368,0.552997975109975,2.10186111336407,2.46906338559529,0.4941626120617,19.6766804747035,-1.53375466574789,6.86393738339893,0.676209182905041,10.3470250217351,12.3541581368922,-5.51663720642819,9.67559471585992,10.1468805468639,-9.6746497040117,18.0453785616537,-1.46335725573681,1.37949610560509,3.82096768110841,5.08340297507675,2.45442171865261,2.56060694856478,4.07314969140589,3.9769898156178,5.99997271767825,2.74337633454479,11.0960085930506,9.61284469929569,9.08891302909024,4.89404602414652,10.5434966247694,1.52638214712488,14.093904409337,11.3037929157231,13.7940614053487,1.27645493664113,-0.469858857768941,2.80698958331368,2.43892988260995,5.1091210490672,1.2185621499948,5.00450609581503,14.3020352144204,11.0931053920958,7.24742363215455,9.60049772794491,10.7577909250299,10.6728723130409,12.9814486046639,12.1191242774021,3.97662072927551,7.68944095447296,8.74664181360868,3.21396796019826,-0.10542328161273,0.0172321019990704,1.85006848078365,5.52549170414886,10.9038966368989,3.89793996185927,0.953889253331909,2.93621552136301,8.84756497317403,3.40632119762131,13.1657639175874,-1.52081450214973,7.75099020021617,7.64101903756273,7.38271362270643
,5,3.60867905439818,2.72132865809408,2.49331487064865,-0.793525656107249,-2.50675962590276,7.97978292710832,9.18034236997755,-13.4958387709703,7.97453211459015,-12.418916804153,8.10521482202921,-4.73285407700087,9.28991175275814,0.409397967751829,2.82656129381803,-0.589737197695285,3.31302065876844,2.42229432276508,0.162951474635975,2.25434945098414,5.32776828897795,2.77519569171955,-3.53871815334423,5.67381361234493,2.79553710767914,-2.70070943630162,7.34937384760633,8.00878998120834,-1.25295098944844,10.1640982310741,-5.30088931356568,7.06170436875573,0.159414621878568,0.98989213312916,-2.83891882665694,2.3736413389679,-0.0272424400532145,1.02094726787118,2.76996995889294,4.67598259788292,3.3019984585103,-6.12063248522327,0.345772268211931,-10.6666540132951,-2.29459698580513,4.26026404916229,-0.0407638569413393,2.11604111893303,-11.7949265858392,-2.540530838618,1.39683677905487,-1.15103183307474,6.22644178880364,-0.615548543919886,-2.65963101022271,-1.20965928679334,2.19835017372588,-4.28725334745468,2.85159139983534,-1.12414547495882,-0.810417991186114,9.60380276994147,3.10817965991782,1.52367046322388,3.21978003851154,0.641833651025991,0.879545659443465,1.07532621129258,-0.491304374543233,5.57378011362334,1.0963454559469,-1.50123361307396,3.78174473259287,7.39763307719659,0.953419804859095,-0.408916189473075,-3.39761249596086,-4.12122449726303,1.13288722961443,-9.56508121223169,-2.18257382710317,15.4089198268575,-16.9845633120053,-13.3831643760363,1.76769874241563,-5.78051331942061,-3.50510048296428,6.05424948892824,-9.13418379404038,0.916516896296798,-0.318147536310335,-0.664976338156976,-1.35246619106647,0.146001398193221,-0.263526512132103,-0.501739499841733,-0.138696518881716,-1.1039001749109,-0.386362339579591,0.0628770727225856,5.79935340360953,3.60837978080781,-4.19566879583408,-0.0650674885096123,4.63784222761342,5.89271663954105,1.34584751664124,1.94001995288227,3.24415644502278,2.68513659605424,7.91072272267911,10.7663829420298,-0.859398218098249,7.87771586222289,2.94255569176448,4.9910676620857,-2.79657899669201,10.7746419992304,3.85429930155851,10.2942646013566,5.28098149424886,1.18509296139064,12.464505629524,6.85080762117104,0.665778645834507,2.92717479668863,-0.957958630359826,3.30974752670318,5.19647570867937,-5.03495030516979,6.98961885231211,-2.79732484142278,-0.421132921303069,1.0707976559961,9.96598322571981,3.03767408568319,5.03641436649104,6.50911800016092,2.11223287352141,-1.22751729081028,-5.94980264127435,-3.21270650519091,3.48674690510688,1.33728882837841,2.20021227401912,8.54374630035545,-0.738850898604596,-0.266200757350816,-1.49525832666723,6.16163927876187,-2.67820252234105,6.68796970522271,-5.23500950172729,-2.52661060113496,-1.72134953112482,11.9545620918379,-9.51533204720499,-11.8367691740114,-0.294114771048044,3.62228108000591,-1.65137740253067,2.14726170658378,-3.14231656183165,4.97716071873356,2.25498966937903,3.77534010971704,9.68141571948854,0.821305103055693,2.32149059311178,0.668973781833301,3.40064155156642,3.80429947868652,-0.751724257354454,4.18126180572335,-2.2046417834872,-0.0453097276213157,3.09675282900344,3.57308630656053,-3.21263318220826,0.26702746880801,8.44988964056074,-2.85935969721686,-2.27215871560247,-11.056456704589,-4.53960909886655,9.48746788946119,-17.265298597049,1.51079080329782,-8.98712926421331,-0.756385655881786,-8.92950706613055,-8.28911400297511,0.557345269297457,-3.45870501089257,-1.10741100789392,-0.549919955308269,8.74329664502648,3.2457495782478,-6.20718559458464,-7.69448290665559,7.09566028538939,-5.21393599178191,7.35750066159108,0.60275938407176,3.2473897920222,0.453548579931521,1.71940548814246,-0.416455613512426,0.79599409903085,0.148387925831685,0.609769514844174,-2.46193178540125,-1.63430371660843,14.4040767672432,9.10896794104383,-1.94045844105904,2.65275413418431,12.4596226129092,-5.64974579085902,9.39333487604381,1.4064407228675,-1.38209760095197,4.27148717201044,4.82442245015773,6.02868972181841,-1.05765604221006,2.80679303057423,0.835583542531822,4.99640778951698,3.54510374064739,3.73639127663137,0.655966884630288,0.819869675603059,-4.085570657277,1.99696021254022,8.23322153348408,-2.57396203108647,12.4592040312141,5.80769928378641,0.40436474276521,10.3966498519585,6.88629522852489,11.3247644982303,0.39296141121622,-0.914051269297488,0.752299706367012,1.08749270509634,3.39332026620332,1.01988286667029,-0.338683477769337,5.33560348015226,7.65991752622949,9.74223104705561,10.2295716687363,9.30213415722528,6.99359881338387,11.4553471914996,8.75614353094625,6.24515205156467,2.704886214216,4.14455709607364,2.52780975118003,3.52428226793063,-2.72284593855511,-0.83624214057636,0.541386671040073,3.54941661884823,7.42192067048654,-2.70833978405062,2.22911644329633,2.10619748309091,4.10432301569881,3.92183167411349,2.62189886895658,-1.62173679891202,5.05744213337675,-1.51162414159762
,6,1.2808641884335,-0.175195473468648,1.49580206946848,-3.43675915352242,-7.11523569641258,2.62583584124604,6.77039344036029,-5.94339691977348,0.884106692022215,-0.852463435178379,-1.96450978532357,-0.265479035783301,4.79688061689467,-3.03963596161884,4.9005748264658,-8.37420026758264,6.72092715096051,-4.50209919561439,1.14784876080603,-2.11367476695523,-1.66493367493058,2.10105978103002,-1.1829708847431,2.83621208271506,0.826136778197451,-6.2871573835946,2.84141634167008,8.21125553481488,-3.13800357466835,11.8606387630612,-3.35804190418003,2.30480076088543,-2.6985850101637,0.260376625290519,-2.82709848250397,9.7278526397422,0.224788991954028,0.151513705191974,2.08026627198797,4.88006879357363,-3.045169515005,-5.52971671130217,3.60889670784081,-13.9976864364994,4.20362393570531,4.40740168655384,-3.04700420452809,-4.40304542059584,-2.82861017982941,2.17405940292383,5.5861242922665,-1.41210113018542,4.31942860561912,-4.00145844750341,1.70735031969889,-4.50643329092554,1.90729317695832,-2.19213288748097,-2.20298949743892,4.40166004843513,-1.15495785265603,8.44144103886265,-3.7178270765844,-4.44512451148603,0.965282947391188,-3.76539189620871,1.59468119541316,0.0916223287003959,1.90884690207668,-4.75553604993684,1.06054896453225,0.353484620739891,-3.37192728236414,9.19408664098273,0.738351657024396,0.570785503495699,-1.03895174053287,-2.10493132856982,4.1751737870718,-9.87021192965358,4.99080706287077,0.00567704054219575,-1.66385012945284,5.12450747760522,-4.71206751617774,6.21583254835059,2.31694889988876,-2.12805130230527,5.65824620493186,6.2600734389639,-0.0590037647693862,-0.257175273840858,-1.65637742411946,0.985515926559401,-7.4299153076031,1.44901997871511,-0.27214024355726,-2.60534953161005,-1.68914005974329,-1.45634091665488,2.79749308111059,-1.05705425120732,-3.56873405047463,0.0240508245642559,-2.95801558826633,5.98071035730254,4.25275558798694,-3.05579497172903,0.619112251955812,5.99178668950026,6.51065218603071,9.52214607208543,0.158791928000028,10.3582979589919,-1.80797198361643,-0.352249336134719,-2.21500778328937,5.16491559023871,0.159530394707417,7.80429812628745,5.82200137737846,-3.31460597034402,11.9513119204971,0.481550209317902,3.60083355015104,2.04379544106769,-0.0300217372878251,0.45908579234856,0.898817448775844,-5.871963410837,6.86273465689692,-1.36234339299654,-4.72000652384304,0.409376160641841,1.46562827953449,-2.48411928726819,-2.26743961213469,7.0901819030496,5.39491652198103,-4.752985909779,-0.314202325628685,-2.34951902798502,3.76548599651005,4.61813193045282,6.05104044882319,13.747569354,1.61567557757871,3.83400236615262,10.8488431249812,2.25278875116737,-0.704817074153198,-2.62839571223321,10.9307722376666,-7.7749611632903,11.0785163458168,2.47305873230516,0.685169500596658,0.754279212733309,-3.59253374306491,-1.01506347445229,1.55746864772982,5.65024655035177,-3.55861439367754,2.9236871008402,6.42517270176859,0.767426426936254,4.35958389046345,-2.19607558186544,5.03992264431372,3.11882997398607,3.96517220058013,3.53960456048208,4.3086818235206,3.74314108704721,-1.99321710970071,0.595424261658081,-1.37312364729996,0.30759648227513,-1.92303133134646,-2.98607420752978,-5.13652850143717,11.5600565725567,-9.08474326777923,-10.6881420604886,1.75750250051124,2.57046876781578,-4.57264073563738,3.61728304507733,-8.54394616454829,-7.54714697792997,3.90140915820621,-5.1544124518382,-1.93453297703218,1.00348816131009,1.48979788078486,-2.47264856687571,6.08114364320045,4.86309729930872,-3.47054556547528,-1.78753296525019,6.40898253199339,2.75803202921861,0.271796910271405,5.18701404002513,4.3698919997928,1.57324261602025,8.18676937146074,3.14797045522346,-0.598560838111553,-0.576175499170859,1.35683674073971,0.592569982430632,2.53937430110409,20.3548336701856,-11.4034104229536,-0.900699593231366,4.38006171419647,2.85810718765333,7.19742545835516,-1.88113202730437,9.02044721997117,-0.712813922777059,-6.4304675706544,18.8445589581943,-10.2787663182544,11.9408471296847,2.28009314602969,0.209496629417572,3.70345132766488,2.72060132901424,4.60965172956503,3.5074793006529,0.736577126609063,-0.728788373093721,7.16010724805301,2.75526600534931,6.67187525632153,3.35922266937996,16.7367593407675,-1.31168082343402,8.56588481270501,7.8361142149347,9.16488165271858,-1.36631646027308,4.71469260793992,-0.678704271808783,-4.82140009098202,2.49493816971562,1.25807204727153,1.52781685522268,13.4137899812677,16.3994314284596,15.5491616043728,14.2972727973006,8.09937069698162,10.4522141053531,15.1814972998877,14.0026040795697,9.22082935399112,10.7935997005088,4.54089716058797,4.28977014523389,3.82866101432819,1.70152540720437,-0.927149584128529,6.72657398345336,0.086027290592483,5.53100891462782,5.95458775999168,4.22297552911505,4.94784608435248,-0.4184642869659,7.73515844061876,2.43382757232439,-0.83626849731445,7.78892453912704,3.30971557989687
,7,6.10999314513629,6.11102466445664,1.13687110402361,0.476567756817985,-4.27171607729088,3.76161899882345,3.93277616270552,2.03658821724048,-7.49431252179647,5.28447359771644,-2.53464359957115,2.16434886042725,-5.29433871366746,8.80071067273866,-12.1685006496245,14.4227072347389,-14.629772683686,8.65034839220425,0.5131210392301,-1.37340101082373,3.29326237155055,7.69237731353451,-0.864705936062364,6.66998642691124,-8.8344599972429,5.96782000511666,5.88698663754622,-1.26843047132434,2.57574136315679,0.160065700328687,-1.25099358750822,4.09543679441276,1.50208745449754,-1.0876257158252,-2.44176129246716,5.46461865978017,2.20214365029278,1.28071330800049,-0.983878982354781,4.58695092323023,1.4342866834204,-6.02022438006134,1.90284177433296,-7.04287241737984,-1.41899869758845,3.5572913934684,-1.66033194766032,-2.5599061176531,-0.301782497890599,-1.16628029207914,6.03011726394107,2.43025421638731,4.80469352609362,2.91711513453947,6.35430302848999,6.55167831245353,-1.23897734885259,1.82099749294321,7.23296036488955,-0.353052302146807,8.57678126368228,3.79783549656395,1.90276098177037,0.222793012915645,0.376398615077505,1.13208371391784,-1.75497429312873,-1.20111848850775,3.38333326433803,-1.78714983744703,1.39621778482342,-4.66287467161737,1.72218595062532,6.75163781210995,-0.534812610309928,-0.713413186469097,-0.971898024508846,-8.07721657245702,3.10323478097826,1.13338624637754,-5.65071974860257,5.29230784846368,-0.589252642010251,-6.94081260934718,1.79293793612078,11.1137423412952,-14.6051973920567,9.27027836784964,-6.40241978703943,-2.69257258431207,1.95398729681801,1.83214044862871,2.04034237310361,3.5026726215624,1.38242381878399,4.07112377460544,0.191682243279502,1.32876949324418,-0.215572660568341,-2.13199556478958,0.94805425857885,0.78489217584729,-1.24541426675887,-0.299118097932933,-1.67389517660695,3.26079198815751,2.20920376514459,-1.23587627874213,1.76213400200413,4.69785578632764,3.70235532916104,1.65630142092641,5.25327676644883,-0.642233809126537,-1.72279516492381,-5.51011171171012,4.90077814251163,-7.45548716347093,-0.61699659650094,5.91408342604973,-13.8314099801114,2.95405072455833,5.18117114489905,-6.55954830549717,1.574951990503,4.57093773635688,2.90882624907454,1.73434796107131,1.82534842340738,-2.10438745100464,1.38962028023116,1.29074037852342,1.8156879768253,4.18688109995628,2.75915669569076,1.75670537821588,2.65634027990291,3.11365882748714,5.68307840140869,-1.36392232675007,1.26206895414316,4.65210146910067,-0.299051288878672,4.60917014104416,0.877347967691549,12.9550990703683,-1.27527725602886,1.36551015689474,10.6855132862261,-1.66068797346634,1.98810271784669,1.75767887152097,8.71826715089492,-3.42129663749347,8.07416608693984,-0.972259411193136,1.8811461714472,1.8926368632865,-1.49796532499386,1.04598926453627,1.47327927941978,3.85597572593542,1.10251345521101,4.90075178976304,1.53598397583119,4.17442819561074,8.24740666044727,-0.488479755000299,1.25381173223741,1.37185111798408,3.88092630187475,5.31104213667822,1.85590283188367,3.43896190597115,0.212309484039906,-1.49940241191462,0.748450679054713,1.19554604751056,0.163126135123548,3.56258468953502,-4.88224363727886,8.89722417548273,0.708785853683821,-12.6320470905512,-5.63661623743428,19.4379355237493,-14.0327608735606,-2.62271381412074,11.9000237460132,-10.4748513028057,4.78656748075127,-0.00831512588547412,1.71450588743255,-4.72945192992074,2.78961438039869,0.955350431458101,6.5102681338949,4.21279349010092,-1.74861675681223,-0.928644799579615,3.06446801860966,1.16949919834224,-4.50488881511865,6.89945266383165,1.11295783393416,-3.24231844256792,2.45817308014512,-0.589866937193165,4.65238784234998,0.737843247502497,4.98455274678781,0.835497239979304,4.02212623273999,15.1876595591275,1.03395036977463,2.56282109403628,-0.961229820185963,9.20615168241648,-6.10635747080732,1.2963285500864,15.3474541048763,-10.6657549994638,-6.77365336777893,15.5160522142714,-9.30145253549472,4.02128814408388,1.60609165256619,2.75921623193562,6.39437098615326,8.05477191128239,5.83346417288521,3.23719397536479,0.888034782648901,2.89109318844203,0.154296218338004,6.40599494411754,-2.51652892659331,5.83411172753176,5.93390891204899,0.677443211221544,5.67638109463996,2.3894585046437,5.07384686345631,1.10849452394223,3.38788499481825,1.82167284399065,0.195046603204901,7.68307916494541,-1.20245973787405,-2.50237353561124,-0.00707298671159151,1.60250620168972,-9.96829212324565,-4.22376639468575,-4.08974505944889,-6.83448301744511,0.955509002627423,-2.09136784396651,4.73082422051039,2.65541132771614,3.691782185178,0.750235903947214,0.391699461075859,-0.435951719239256,-7.83831090635431,-0.758131552144732,-4.30715766320236,1.46098818265682,-2.0086506486191,-0.639326699206322,-4.94966479378218,0.554752147099407,0.019098765777926,-4.37252118672632,-5.48765618312927,2.64310698501322,-1.57868931596522
,8,-0.593163051135889,-0.0891615576670119,-1.57295272968167,1.57531778133625,0.698191729635255,-0.160187473913538,6.49745793413967,-4.94359784865037,-3.16562848248759,-2.25725419535866,-3.14882496582686,1.91502711147223,-1.37809450173472,6.77443742649348,-13.681902452774,5.52097000053391,-11.7743142646145,6.01029905174482,-0.279375453870216,3.92561534728247,3.09994762831957,2.28431420572315,-4.59043350320189,9.42457862843412,-5.21218289026137,0.440624881173335,1.1078813684112,-8.71103978713882,6.24795500751452,0.741389062352027,0.93749148878851,-3.7296986698384,0.353092780145744,-0.509222041109751,-2.56731027895194,4.97761405259234,-1.03251877040657,-2.86868740359932,-1.27731058910331,6.75999385889327,2.68934716854756,-3.27843690281134,-3.11365254874408,-5.09704027593034,4.86910071538159,-13.8236807270291,2.67778997681262,6.27050797161382,-11.973750132328,-1.37823626742693,5.71618464091807,-4.02677067006016,6.19782939270044,-3.66467811718258,-5.75799972299728,-5.55316019226439,-1.39502216748861,0.00663909802005946,-1.67800993975652,0.95684255182141,5.29741146728065,3.21056599015355,3.10123967083427,0.977830878665827,-2.02713361140559,2.26212229239809,0.507986739807166,1.29346270512769,-2.13545222522953,-3.49892194170707,-0.343811254532739,-0.1915413194547,0.00935930914556593,4.46367700440942,-1.52376590863196,-5.66833594249874,-4.63597724452893,-4.93835788928664,6.64465563643944,-12.4866155448608,7.78198007964147,-3.11379520785886,-9.82591388898163,-4.35402173409057,-9.43062878436513,5.53317380328281,-11.7432390066633,11.3394221568155,-10.5606182082602,2.39116145783828,0.390754564466988,2.94179531398095,2.95193621365706,-2.51253941414961,-0.47745244754924,1.56739233968801,0.952474820834141,-4.93542555535078,2.41497389992355,-1.95282713027018,2.39857891495922,0.770135213869708,4.73968662372499,2.17088406003131,-2.17119416464948,4.50071934362541,0.0493852287249865,1.75773497256841,0.354630649002502,5.34540217148196,5.43890743602151,3.59749988033354,-3.75680886504551,1.01293484439793,2.29506476056486,-0.106934010053465,6.1050315544735,-5.25894572048855,0.30920366871942,0.739114620170312,-3.44907310732697,5.95697881674505,-6.42420848462734,12.6413094269365,4.65691204574523,4.51814284447346,-2.30264509386234,-0.994311513245066,3.66089716971737,-2.8276882615537,2.02825180075797,0.786959792986636,0.806967221675222,6.57774710088006,2.54139708029652,-2.181810634469,1.36909414995853,3.33985030635677,4.57837211992364,-2.04099768616697,-0.276210272474145,-0.39384778894464,0.542562219020965,2.73660048563443,5.61740300082465,10.5765116309176,0.64247573662351,-8.13380173981841,3.98663486472196,-1.01328902667683,1.27702660812975,-1.76167660153442,3.33266517516086,2.3899871619451,-6.15420169329764,13.2843683049023,-9.29204991918232,-0.555825969372563,-3.64561639504655,-4.14148976125989,-4.20333428928689,0.549179155283127,-3.15333657385781,3.64795029854304,-2.45622138127874,-5.8586324845146,1.85576759377591,3.56164867354755,-1.08797654098089,-4.21735988049659,0.760719492193402,-0.588375029917643,-2.32162451281329,1.81809422331389,-3.93813144820979,0.343515140767977,1.1017374888288,4.57643578235957,-0.949499192516214,-0.485323198839069,-3.705337044722,3.93145491008454,-9.16337942863174,-1.27592839135332,3.77045778640741,-2.4054142335126,-5.70652879660111,6.68038439876591,-3.98779709118071,-2.22767476649597,-2.98737403757241,-3.56703819037966,-3.06705262187825,-5.28384670910418,-0.936772547255259,1.39205992480584,4.62936632680339,4.31162669890136,0.743442036241504,-4.96139090420047,4.92813575832861,-0.32991623840644,-0.560639195933618,-0.909115893480703,-7.16064167995864,2.48669952558748,-3.12863888456877,1.01555921276349,3.03518977247859,-0.189885479943769,2.84171797940553,1.02245790907727,4.88350054190687,15.5061492583036,-5.71367823565697,3.38366663913939,13.819162999192,-6.3148555622156,-0.199746539388343,14.2488155485617,-5.77586746513362,0.115675709674633,1.22882939955025,14.7283036918711,-7.315379946348,5.41868350116783,3.65574200755191,4.64327464112739,6.40358519118354,5.03425426252852,2.52698640640119,3.82786051676567,0.985604513229191,-1.36216486059084,-1.68340981357733,4.51692484433943,2.25598768176724,5.58466697595486,4.01102344415858,2.41013298721145,2.24164650253761,10.9109586517166,4.51373967210338,0.0887841476537687,3.60437670436568,2.62510424243419,4.3496511197277,2.78760552537869,3.89840411829937,-0.329734597558854,1.64292940662517,5.5067229503843,4.73005987907163,6.25272159545466,0.42886910666175,3.66806156076427,6.05454229077668,7.19607943771416,4.50399714619971,9.1482612467471,8.04170783756081,2.1617214119392,1.83540442680487,-1.73542964056605,-6.14430622537611,0.739192631334845,-2.46254203654235,2.21579445315183,1.62325218384149,-1.24410214455474,-5.36534382598074,5.51535697964528,0.0435134389199447,-0.386560026563075,-4.52229148031756,2.82995469195339,-2.56305923689297
,9,-0.139292579902758,0.15389203989389,1.4125783183058,0.0184171810851694,2.16208505260965,-0.430040524677679,1.92276075520067,1.15041651883575,-5.86424744281931,7.73894888173845,3.40772064361363,-2.27244179662193,9.63639166312623,6.88910987111603,-11.7605409173616,12.8357344113738,-4.45565039012899,1.75235626663016,5.45704201731905,-3.76831360832011,-2.79714871952001,-6.81701476943135,13.0767970148408,2.83337347469387,1.00863545486027,-8.08481267015122,9.47474556893894,4.88291530634115,4.74865673370823,0.341518327978065,-6.47180498584748,5.96063220182168,-1.10278741378443,6.08449794262879,-0.46684067392107,6.2239770682454,1.55244658885476,-0.0263969391885439,-1.02261888987368,0.43185365155523,-0.99670699413582,-2.26710691769586,5.13911273577924,-11.9854549712909,4.62083724115155,5.35076715734476,-0.241022263076957,-0.490901902333462,0.314266524485902,2.31932510450133,9.57473777674841,-1.58212398466094,7.66622896560602,-1.25222969207198,-2.6289407207687,-2.87728177048575,-1.1590624752821,-1.78313721308359,1.68030084524298,2.4661015512429,5.03705913294152,5.90519477387579,7.59288068020942,1.99237551192937,0.950219193846806,1.22402146453669,0.485172766039341,-2.40589382729104,-2.21584772022379,-2.89458344778041,-2.17738668451511,5.65533731135929,0.920189443851996,3.65106262806648,-2.09054169935189,1.35608630688012,-1.50223525037336,-3.31879006327745,6.74171639731367,-9.77209135481507,-0.728827149750941,8.51142598858905,0.287354926154421,-6.67673092346149,9.37482908751326,-1.98319677263908,-2.97529557510506,8.85383278374229,-13.035641517647,7.38694528825454,2.68668864207211,1.64585273917146,-2.93247655899631,0.00302187575925927,-3.20386520293232,2.65478736830346,-3.98586076713627,-1.1556393546507,-1.77111553236136,-4.41904787474232,5.67574847459809,0.285093233054795,11.4631674181446,-0.211240371936128,-2.48828977194171,5.04257243937172,2.06611846049191,-0.438272617908751,1.43350923340768,-0.861321006121671,3.92678046848641,0.946553426730134,5.44497328821035,-1.96380755941527,-3.33283420635144,-0.686008623290491,3.53319462250829,-8.6117990194839,-1.75641710310583,-5.26773290626988,-11.3255403672028,6.50467003044014,-8.55306643781114,5.46954421731652,0.26777410002569,1.70928057893889,-0.00921814171351798,0.68994718940985,0.996282662357771,-3.46588447377235,0.745508804054225,-0.0169428625954424,-0.979332875799628,2.21436946699032,5.42021699618226,0.0665854190629034,-2.99938653267418,-1.06789600511274,2.75651208861291,-1.99114415014037,-0.855339731898312,-3.27381945377601,-1.66414765892296,4.34935660843848,1.38799721540818,6.938100569173,-5.93312041613581,2.07693675895098,2.40453090330629,6.30262617699964,-6.10580770933439,8.83317584743236,-8.75293778230025,2.75029876582903,-6.393101607679,10.7731423816276,-4.5137300947963,-5.52143152924873,-2.98824055974637,0.0478879711563422,-2.43128983530232,1.04967335666606,-0.974301802873924,2.4751485042666,-3.70038614443092,-0.292200882243378,-0.380982664232306,-5.20889660774355,-2.84552074710018,0.545025830079794,-0.22483375371803,-4.3933371983162,-0.0782736942487645,0.718624584999361,-2.21115381103982,-0.093743255606114,-1.76992980622344,-0.124696640512411,1.52731704483222,5.38601043558401,-1.7055444240782,5.08850849294868,1.04535956013797,-1.19246359113504,-3.72889223195489,10.2202258754505,8.25294835639352,-3.79720448056241,1.23783004716279,7.80416620565529,-11.1476794124887,6.6609513146127,2.27520483385615,-3.48973716329283,-3.28786591665221,-1.04874548351927,3.06971662030719,1.70329272819708,-5.44300549687568,-2.1839313005471,4.63355129417869,-1.13568269029929,-2.96196664983518,-3.94121029393273,-3.75156680758164,-0.338889538237709,3.48467151892783,-2.18153396146454,-0.476677884897526,-0.863548793004156,0.240771853003935,-1.05503578295702,0.907497350360245,14.2321814059019,0.125499493948155,-0.699523545795273,12.0945139310074,-4.75251706191966,2.07180428506717,8.0763687843787,-8.51257386663565,1.93903447185448,7.98677004297224,-1.48140873407419,1.3238167233194,6.78625275420063,3.43228552398568,1.5159830666762,1.43308383833755,5.23799929844381,3.48801098271906,4.64257748645014,-0.0250174695206624,-0.111305195981004,2.22792133670464,5.56296213129235,-1.99607035798681,4.94541826160139,0.434169742445647,-2.24200129827523,0.626613390712919,3.54311606112606,3.00241427118044,1.26137445084078,1.8413553863079,0.0426944156929494,0.163924455854612,2.48452019268416,4.12894319959787,-3.53258982380885,6.34638908118632,10.8512828047765,7.42134074637534,8.40041001769168,5.22515850600257,5.22205840206107,6.26245119851228,2.75510758226164,7.18151843869191,3.58381005393403,5.182660051325,1.84345959535494,0.813408949473796,-0.743967223758318,1.01669155598302,1.25539370577235,-3.86722960864927,4.38760548019718,-0.49464199451495,-4.48892567480834,-0.410021629940275,-2.16357760405663,-0.0948528794433514,2.40394556744286,-4.67670725010112,1.8743381981335,-1.32979680227618
,10,0.749041028085685,4.1252915811956,-1.03449200418208,2.73777292602563,1.07278965904743,-2.8844712119776,7.00493270960897,2.41742886178054,3.10324271477748,-1.13014427647704,-1.553419668066,0.788961962054145,1.5765916966111,-5.17690774402854,2.25359946464187,-1.84941871903584,-8.52694288912971,-0.854759031096364,0.518538414637987,2.74542342130007,7.26630823079086,1.34837762055577,7.5395538955413,5.35510175806348,-15.6865360620313,3.26325397578603,-6.53027329126235,9.49870747796422,-8.07637416051466,4.13064639252434,-1.22670970918534,5.38952922758699,-1.3326670311817,4.75948134549071,-3.85579808399916,7.18441464985062,2.53380942549393,1.40144038348035,2.07896240223681,4.46438164318761,-2.8085582582321,-1.3495688527446,2.36868200925028,-10.4696957484425,2.45463507240584,3.29465746661117,-7.42293531642827,1.84636175900914,9.54852888328787,-14.6732552515828,4.46992976845104,3.39185454452854,-7.41693560334579,-0.152115846442484,-5.49235769460938,-3.111489191278,-1.10106647641123,-1.73099214705053,-1.63250201173969,4.68964563187546,2.56632098500904,1.20298417336971,18.5588470249527,1.52329847953388,-2.94761370675542,0.123259735560168,-3.18690173170808,-4.05357851965755,-3.03978083185848,-2.56720771537039,1.67060264989959,-0.296670185530274,1.39173461604469,4.25732833019401,2.28459251129289,2.42667013924711,-1.69543448086733,-0.566224423904714,3.37579862131315,-3.74279666115581,-1.96924179187363,9.94895937322144,-10.2985576519986,-3.97082307932169,8.56539526997949,-9.52117153272047,-2.92473994018383,0.86234346699348,-12.3006577694837,1.01766528746703,2.47691429514089,-1.04075447042351,0.572923275418816,3.16484115469666,0.0796275086422611,2.7788513191017,-4.04593123200311,-2.17300680469907,-1.00506639532659,-1.15297073639385,-2.38400856067528,-2.03614030265544,25.6249725326602,4.21763789005718,0.687280705794365,6.62230789706291,0.490800873396438,-0.142169227726754,-1.89904868087478,1.31776724526026,4.22480841971628,0.579774051143886,-3.08376927063409,2.8892650864691,-1.4090393706897,-4.41475068341288,-0.180139398291431,9.73060558268025,-9.79293821701185,-5.33897466462895,-5.51732310748321,0.479347132762541,-6.26174448984602,-3.5239649441537,2.37972004606718,0.257787898718107,-6.11079797701359,-3.71758627741428,4.34272479445099,-3.04702346356362,3.58930961104306,-2.33453696428069,2.92611299947475,-1.07582394684823,-0.551763288489838,-0.140227426399633,-2.10374920931281,-0.423026554087301,-0.728681966749264,-1.65325879217744,-6.10048938963291,-3.27187978517804,0.250075682472925,2.82801168424658,3.19945800543883,12.4658227648274,-3.71831789161479,1.75824119563367,8.9196356502116,6.4835976557506,-2.73573164370919,-5.01137683854313,2.07617054464981,-7.81072311284606,2.60742702401831,4.44847382521675,-9.23817605287786,8.77281466122258,-1.47773053980745,4.14526026875137,-0.763364034570714,1.75432534930405,-2.80367525132624,-0.282559901305376,-0.213810317561183,-2.00529942151343,2.39740581752403,1.25110843275161,-0.62232278929514,-1.95915838360997,0.799701500259744,-3.49932624787516,1.4890145460281,1.5102181701327,1.48778049866996,-2.23159418913019,1.21584519512726,-3.4738022477577,-1.28613509990373,-1.7864482371142,3.68670854824768,-0.97170697745014,-0.718002076985158,3.91772016071127,-9.96540525313731,0.689332893531173,0.854949442608358,-9.29700628769888,0.237696801456423,-3.25935188534459,-3.80007784471445,1.29884828191416,5.9474204163289,-2.26496252714605,1.57192390012142,-2.1159838921817,1.13720055630256,1.26985657461228,-0.551027282587256,-4.53603781804441,3.70659744919021,0.812707786865758,3.53916947721291,-2.60138262065811,2.27711275615502,-2.31302998874708,1.18983754240799,1.23922114979268,1.12632331715622,2.27020507055249,3.79051674172069,0.778118908510351,-1.03304872843364,8.16870899090009,5.54206582390134,-0.181212570990738,1.45135701208437,9.92168174051449,-7.79471646718775,2.40895057779699,9.70381153660765,-12.8814433877815,-5.54075407444998,10.8176356477074,-10.9574416689893,9.49719988744619,2.17625305598085,4.21755856673008,3.51750790517008,2.20966821716365,-0.812583036281467,0.0229290739539465,-0.182174451016635,-1.31778043058011,-1.63427922874098,2.84242232539737,-3.85956916936721,-2.14477665970253,3.89271272112319,-3.56781369293185,-3.78601775685502,-1.17479313341983,0.648812030895442,4.76013742145824,1.29841163334868,2.89685761840428,-1.21666674898643,5.9420030778906,4.92475630379749,6.76654041117263,3.01930095335319,5.77845688964408,11.1997581973496,14.1902563829572,8.18388764059773,5.46384890176159,6.17214042491605,4.19327920684782,5.22649000966658,3.58751829895573,3.31009333190013,-7.59306683294471,-6.31514122655926,-2.49039256922106,-0.0592212203337112,-2.07041806580492,4.01237543679281,-4.2442011435005,3.25695767954448,-0.371639333313851,2.00643372719605,-6.36954972261583,4.31232901419662,-0.915262486377742,-4.5786582576261,4.02135388638726,1.42223660842683
,11,4.39351065009532,1.42096036689691,-0.585011280114031,4.2284484288466,3.12676464548531,1.03684968163725,3.73854863770066,2.08696229796897,2.47224778949976,0.177139947269552,0.0638709199793084,1.79056141896262,-1.59135495084229,1.05501477776488,-11.3123709558963,14.4354844523909,-7.61547834127396,8.99447056028976,2.41888309513615,-2.6219511015538,0.980142065875953,-7.55027804507108,41.1806339470709,-4.24025962565838,4.66586863058137,-3.41455267778565,2.10100289646743,-2.74790071484586,0.977487014786675,5.62737695260694,-0.318155709030634,0.406296652806304,2.34328060266489,-5.9749495783376,0.49787148632322,1.19659424399151,-0.633641899879422,3.17531622350134,4.3275569837283,5.977421744803,1.25542465189847,-1.30537641679848,2.60723392870023,-4.19941770997229,3.28435553216877,-1.49151908951171,0.0448551975250666,0.8526325187363,2.83722395744871,-10.7113139910443,6.94593986416339,1.67312052764464,-5.4163920579731,0.159731170711893,0.599456584291602,5.92432078707088,2.42959063494027,1.09804619099259,1.23293296151542,-8.8033402003357,7.34372557343931,10.6863484389373,33.3198745178606,5.3638938819754,-2.52008996824543,0.268777058522119,0.888706946383991,-2.30617196902313,1.05652425262315,-3.66921989957336,-2.13243808146672,4.90639947047339,-1.74431214148535,8.37562980132725,1.17450572087637,0.787416763356759,1.00118506398894,-0.638059859872101,0.315391056894896,3.55601310946713,-7.97739119732842,8.0939697537483,-0.531061530675743,0.148855027452555,7.99083768455739,-7.3540123737148,-1.27981620357195,6.70042344681815,-9.67589134118452,1.80533126624732,1.81439359025944,4.23410398105034,1.55218222257827,-1.35733641294973,1.39504189403351,1.05111737274729,0.368241877199125,0.767420991195195,3.37719910710484,-5.08585800015226,3.82913406493935,-0.363498081379021,47.6482271304512,2.47915324232099,0.161188505263453,1.46211168615309,3.0727695365008,2.10271401926502,1.66604486330925,0.538460138854134,-1.64652403114042,-0.729192355702708,0.928592619535266,-1.91007551336588,2.51226283800315,1.38987176620412,1.66120129419596,0.151983764761553,-0.113847662865282,-6.69108606486861,4.38472925808219,-3.29461280579062,14.37134553341,-0.483272899599797,0.46921420785111,2.40875235868089,3.02236232486985,-2.54469087323469,-2.1430047834624,2.45472470916957,1.01194347570754,-1.24626033211143,-0.162845198864943,-3.3536707717949,1.4547262124338,1.18930188562081,-2.92804901187901,-0.29488421508313,0.72381237881109,-1.72872700893913,-1.77397554586923,0.807720541763956,-0.0454821433590951,-0.155010341450634,4.82144590246207,11.813392596172,0.891966538829365,3.52904382543102,1.96833593283009,1.36579075595137,6.73230770158852,0.696698878342886,6.24985150682869,11.6296136647024,-6.25897055741461,8.72230868076713,-6.459209268015,-6.20456793565518,-2.07098042634289,3.38070465476721,-1.16045118290822,3.6171011535821,1.11347375915375,0.0231920174674087,-1.88558943725093,-2.76442109729487,-0.682111362010346,-4.28138501335116,-0.372167426673059,0.265479977652376,3.26982459997953,-2.45827908089632,4.20754493725053,3.00947870792061,1.9122181065618,-0.699810940667248,0.496456952535937,0.531771915993431,2.83065952358538,3.28837413663223,3.01911465078138,0.486856075923242,-2.2456037995521,-3.24498259704478,1.43802033831525,-0.97819522637019,-8.59367679901152,8.36667047835954,-7.66548132229445,-2.12610443145149,6.65759649108577,-9.66665816374916,0.0325365968651568,0.514179689709636,1.26129082087937,1.47640490842332,1.02134538994733,-0.0931371322203631,-2.04035950689649,-1.06375366866632,6.53311259022257,3.26455298418568,3.27411546438361,-7.44856943278955,2.80883865227543,-3.07337088358827,-0.770231930760929,-1.75158816502835,2.03402984225022,3.55071336070569,1.2537983546863,4.10943459335886,2.77389144528252,6.47213620535285,1.13312075080012,-6.90796548390381,-3.83210471414168,11.4837644767858,-6.92590325656874,0.350067426932128,2.03935093100017,4.83976227182484,-11.7821181169534,7.20591790447634,8.25804536844635,-4.49610902946733,0.925252295188784,-2.77227956864226,4.55901086114864,1.52926007851602,3.84580155254889,1.82069682260544,3.23884975410965,-1.9718937202756,0.909137835903948,-2.22823262421343,-0.166027242654764,-2.94336323272,4.56682181363203,0.779811940805757,1.56768283927113,4.77049376936384,5.19516228779958,-0.788594388989168,0.874212633414118,-1.6249039579975,0.402104703488021,-0.923503552914553,-3.71311681837597,-5.5311197068504,3.93347620671875,3.98886433564121,8.8001207304942,6.57279090761767,7.76693594562948,7.40444727464001,4.19569480976588,2.38171004380592,0.204012326463726,1.51572292247556,6.69586752989062,0.75076509868768,-2.35924310789005,-0.401161060558024,-3.28841807250546,2.67954970503388,-2.4796613495505,-4.56269323908555,-0.842981037741538,-3.87612141354202,1.72622707502387,-3.40420869875697,-8.9204742608531,3.34524647021772,-4.75550184927215,-0.0861521746728613,-2.95148354815183
,12,0.418175528882784,4.01236635983378,1.52193635958292,0.979313857506895,1.15743451953813,1.34895499943786,3.3427528563393,7.10275787311821,7.61345580184843,5.65770639747961,5.45605197858458,4.68461586582953,-7.43451508699854,13.2650651951085,6.32941440838476,-2.19847305162966,8.03589065270853,-0.093411928673504,1.39610380635349,4.32499999902348,6.8363394493972,3.8258162620391,61.8100176454404,11.0501262196922,-6.09740195149016,7.37997050703143,-6.52502837749716,3.7008475064531,-7.16979643582545,1.79894517107277,-1.23790630801295,-3.53946854788819,0.20720982513194,-0.234204908689208,1.85228347297925,2.81799040308033,-2.39297085589214,-1.32754805944114,1.02689683377957,5.35498258731059,4.25831340627656,1.92244199626521,6.17265722204456,-4.21881123691674,3.44613669353112,-6.47657248677979,6.15017660585318,2.12577669874372,-1.13197354356726,1.48291264379804,9.87358489704729,-0.321589490799852,11.5962544848585,1.9916414569343,-2.47529664377862,-1.98161982051352,2.81719920411706,-0.00540696963207665,-3.28345320754806,4.87701277820042,0.630135490663179,-0.525033339826678,80.5871353737261,4.7263761657332,-0.52054938607489,5.97120085842562,1.57136214215097,1.69857744044839,-1.35233903561993,-4.0187569048644,-0.440727371436424,-0.476771169895073,-0.395401560799201,5.48845284828076,-0.0173602177142129,0.354314809703737,-2.64242135685936,1.84845988743291,2.24026678828841,2.57826151785275,-5.73667779243169,7.26962184517652,-3.10874869380723,-6.29769623579523,7.39989435737425,-2.36578002111992,-2.48254802019574,1.05831096610518,-8.10169247256408,0.350551868244111,-2.99279610037547,-2.38811107512674,1.34878461500466,2.20584233588534,-1.53283144104944,-4.7333837690644,0.0416993039375484,-2.89865071915256,-4.70689415850757,-1.47274610972772,-1.97188304986776,-5.58143719783357,85.4932641059013,-0.716423227486757,-0.00677725429613929,0.36486883794214,-0.912724064226495,-3.1616431165362,-0.541638956142378,-1.32910240585306,-0.240997965556289,-4.80882723066679,-1.05761946109851,4.43878167894172,6.67063454595109,-1.68693016165662,5.61783041036688,6.11508600314346,-8.57994528023937,-3.36626120396795,-1.28793740966421,-1.13482790070884,0.301022644810473,-3.05474783661748,0.120755466692117,1.85064294389622,-0.673285460607531,1.08529784685516,-1.48343779938796,-1.87215573409003,2.78065576741301,-3.0010212529919,-1.09744264597521,0.868351032926967,-2.32047439743792,-5.26063711138795,-3.36752502893842,-1.21855635383645,-0.337772194579429,-3.1882679183127,0.964150319317014,-0.0339247053279905,2.19191791201592,1.49138525841317,0.626966419665678,6.76518301715714,-0.831554529777804,-3.49357702193629,-3.32247482142384,2.80587149196344,-1.9624192371416,7.57050107682016,0.835831364431215,10.918965861621,-4.13541187212104,7.05088355166345,-11.18717351434,-0.0012651512379307,-3.30589723851062,-1.66027227371796,0.297692089906832,2.17929875863547,0.0671319025955199,-2.85942210881694,6.58166492333021,-1.74322072960786,1.3102607995088,-3.12602525161174,5.99917322900092,-4.45889829724138,2.25286019975556,-1.6343993241976,1.74006823761601,1.88823270969533,-3.91011240122862,0.480879826668115,-2.37439189000543,4.87333044937668,-0.228904650895856,3.40345021315534,2.0098780235403,-0.516696385950127,4.9962710929135,2.55633777606818,8.46657140515526,2.76977773224644,-4.21509869979263,2.3244444939246,-3.98352049994355,2.60910147715731,-0.854533283807996,-0.823763559702911,-8.35678126518042,-8.28274668902395,-5.55256700413747,-5.37400997624172,1.34756955736702,-3.44368351290086,-0.303702039956534,-1.32308405848971,1.38273770318801,6.1553508951356,-1.40116638286509,0.954981776638306,-10.2392733401225,2.44556341567659,-4.87769756096168,2.30965538093142,-2.85881342067341,0.40189154776408,-2.08164312199051,-1.8137279204584,4.11737268355682,8.15009329760778,-2.61305869552871,-3.3871548205525,2.0532227239878,-0.48316079518554,2.87064569486711,-12.2851204113044,-5.68882943543895,-0.306741606717424,9.6616917878564,-2.86566664943393,0.631081018031637,3.44617749287363,3.85505244230762,2.92325470680316,2.33279363914153,-2.49184936931852,0.817684167278912,-1.65756972747795,5.00545803227942,2.5751932404246,3.9495765672591,1.95717937830022,0.201403412063883,2.33057017598412,-1.73273456425613,0.70215139076754,3.7937009977968,3.56664309541884,1.37027017453465,1.31869267869206,-2.64785740811249,0.886741321033696,1.56724997610581,1.03316387853374,-0.140628246321285,0.1866451731712,1.90164533134293,-5.59941616843435,-11.4658780340337,-4.25872180333999,-2.68953692198875,-5.60172790472188,-0.571922399381037,-2.59980979860666,1.34242446257804,0.60166860402569,-1.51223548180042,-6.23860701611875,-6.41503595171525,-3.01119868711658,2.6935577092695,-2.9699860017372,1.36784859686622,-3.34663830906766,5.61767788940733,1.28291201450565,-7.40610242611547,3.2257984913349,3.85727855221785,-6.89590579591186,2.10855178289694,-1.94269805147997,-8.51511032978578
,13,-0.935457266722551,0.370168092866152,1.78245286556285,-0.580955982332398,-0.101212273489182,-0.904582408473289,2.51316600181872,-6.52159542586969,-2.68017561944544,-2.75031354345128,-5.77124319589348,-5.20937656300384,2.46328665525243,-2.80381821012725,1.00550631671649,-8.60828093364808,3.20383395667977,-6.30990001234841,-0.327691708590464,-1.72317315401278,1.05999404275053,7.0348899106325,108.615107428166,8.65828911626522,-3.42978453143087,5.94750079919049,-1.60578835859769,7.51532349579838,-0.509817861140618,2.87366062736692,2.79328972259464,2.58255339467314,-1.63340743525987,0.0610940282708725,-1.40660392525069,-1.72214134444721,-0.26188264955772,0.216679892640059,-1.47637760474981,1.86757627615179,0.13606704041058,2.37629274126675,-0.66187014560046,2.24174734290045,-11.6293346600014,6.43539517335967,5.64602244464322,-5.10238469487058,0.905128340696137,4.63148882994119,-14.3742268548567,8.19026952392142,-8.27200293583155,0.81199706372081,-4.12550903920783,-5.3147546785608,-1.37971407165196,-1.32706289301905,0.521800071440339,-2.27070498792591,-8.63540095063627,9.99067134860979,134.887059935675,-6.68229353959305,6.33851717204334,1.22000341442345,-5.57332769213053,3.74610555612117,-1.89456111965501,-1.63928629416796,-1.60017488649419,0.219341109717334,1.65051764938835,2.21733313052709,-1.22461316365388,-2.40221046511351,0.0606473108946375,3.13218302825499,2.35641890076977,-0.759041381376846,14.0214221886463,-4.95096855635802,-0.21824629365392,11.1287367407272,-5.07126429744721,7.5877898145709,3.45380225861163,-2.25400717883531,13.1034590859435,9.52127150084334,2.62574652220201,1.49774953869428,0.607895934761927,-0.945852880488019,1.13213881592128,3.43649930865831,-1.69911507897996,2.01887679836409,-0.625825171071483,1.85382644240872,-0.313780569473693,5.04685674646862,122.519169443619,-2.28175092385709,-3.39007494633688,1.98520154958578,-0.406742186145493,3.33897353390466,0.954979957282831,1.50837124898999,3.30023285915695,-2.56989170532279,-0.682155822697951,-1.42328867590504,-0.81882407856483,2.76447937146122,0.220996603996809,10.0981624835686,-9.59937607576921,-6.30724830360032,-2.60011969731704,2.16211170379484,4.50061877180133,-3.89026638320092,-5.02093536734264,-7.52667047012756,-2.41615004377127,-3.98132855351378,4.3204607494954,-0.672319076396434,-1.77064586758615,2.12119385683445,4.73856072479202,-0.664651689372022,0.863177787535278,0.67635830480549,0.706455558750804,-2.38573571260122,0.554907840542,-0.540532610863011,-1.57267167289592,-1.77380610438377,-0.287060914496124,-1.30983140083163,-3.08390595430046,8.92921146054323,-4.69604163593203,7.02459270097779,-11.6791554307156,-0.441771532076018,-5.41943509490966,6.79021031637103,-10.0918692252812,-4.62291103529697,1.7317835002782,-3.83559829067508,6.11006761742283,1.66358216509252,0.382694269203967,2.7814972667793,1.82405559115114,0.913722066969967,3.15371059865902,1.52069611141997,3.29624885324347,-1.95185301509082,0.197152844815264,1.26871537476791,-1.00541242443478,4.27946917642339,0.498132228316535,1.78865870227492,-1.78706819061154,-0.997626380585643,5.43382298515917,1.30520903223351,-0.497236138005064,-2.24419838233143,-2.25342108579935,0.175189213855901,4.23044273584674,0.861677754691755,2.61773520732322,-0.103285620521547,0.293690642853562,-1.05488228498234,-2.9606692575835,6.10731400839404,-3.45212339498812,2.5446965468027,11.1764624076059,-2.73442407109951,5.10628617583143,1.36550877553873,1.33945391030738,3.03557108492214,4.74408289836038,4.52023579822662,1.83468524154523,5.17106127237321,7.783906853796,-2.91265421773096,1.41738680068238,-1.8390258233735,-2.45866705144181,4.12470716558801,-1.13365815274892,5.57434012842987,1.46279756574586,-0.165160906176425,-0.224325537038567,1.12302500114583,-1.90534202328081,3.3290500843973,-0.0453861146884265,0.337619718495262,6.12911730651376,-8.30221903632309,-1.25750359102767,9.80643061199271,-10.3875730943651,-2.39923427545955,2.01061883463126,21.0435842146399,-7.96852415639205,8.79940772708778,2.99616808225665,2.00959087384945,2.30573885508829,3.14892262735339,1.6911150888568,-2.73506688431144,3.16625145282705,-2.71744911121687,0.0952728098991429,1.28270871649465,-2.37064026638564,-0.701781375618339,-2.92508874745499,-2.95760129036898,-0.918400669263519,-1.19822710501558,3.28200013607784,0.927140163634249,2.1580380886262,-3.83153624586248,1.0092739101965,-1.90918452349842,-3.06856842844263,-4.58199888055469,-3.03357010867103,2.81028207988584,7.4152403878993,7.5236604313418,4.35357348175557,4.02472238739574,4.78431447957837,3.06166277551711,1.20550213623255,0.266231951246482,0.742501347275265,-4.82658620480424,-2.3723972838925,1.31740345283924,7.68563460465975,-3.16460288235339,7.04175085329098,-1.02189418487251,6.23916123053414,2.64985714376871,5.88609400703081,5.3188074188688,6.62216298688963,4.38491378106164,4.34927137598697,5.80915313431706,-0.97511944316193
,14,-2.0732962780512,-1.98901539825147,-2.49733618936671,2.44179852608158,1.4244384749627,-6.99057766636679,1.71269210387663,-10.0216644910056,4.9595741440703,6.7288334464638,2.11747746362653,3.23620226658113,6.44411969039766,-10.9898281576811,6.13896335031404,-5.50195348818852,-4.50418764979895,-4.19696939092955,1.051121197474,-0.29474256343974,-2.78965277077486,-8.49913574063567,160.94196998795,-7.03128556529828,2.62157783150133,-5.88478885270615,2.01589775413777,-7.11480618598216,2.16193770627433,-0.786467739254476,2.14723174970322,3.98961684650749,-1.5826069466616,1.94964970746651,-4.96863199741438,3.694940278795,0.875073014377904,-0.136802255885414,-0.683928764759912,1.40162922269565,-0.410050693674748,0.501067025067641,-9.75997346509985,4.25150684134724,3.89915125355037,2.73198215420871,2.33265953066439,8.74733294574844,-4.10833904804349,3.72347713442105,2.62116366469263,-4.62386145845903,11.6307917844665,0.306016178083155,4.65339006780778,4.07075841462893,4.22265192605073,-1.2479985137129,-5.08960072909895,4.1141656573559,3.25581453268387,-2.33775104498818,185.886463351341,1.61173297336836,-1.97301620956705,1.57888544409616,0.388256003373954,1.69264188998704,-3.2971811429461,1.24584965572694,3.41364809633433,-3.07645050152223,0.741451829356265,6.47751155373317,1.25701727313935,3.44589699788003,3.01110784951106,-3.0194406029741,3.53164613617355,-1.55491944763162,0.216505929686264,1.0858212885928,0.539718063090731,-4.08829027591537,3.135127968696,-5.45972231316091,7.22710792300313,-2.74604829735699,0.725038185596532,-4.5885885499024,-6.38851633797958,-4.3929559938997,-1.12603185621902,0.738977979159699,-4.29462197950852,2.58379311483895,-6.7872000581915,2.67301486941778,-6.81362592539881,4.56568015173889,-3.47915612909765,0.226390029643881,157.798856914,-1.74962801337006,-6.26006296930564,0.0245814936583884,-0.941156284606222,-1.95949998116475,-1.8282688039094,1.73238050756026,-2.62477016607727,-4.60426636895409,-4.27663172528673,-1.48391491528082,0.260671557678506,-1.13162479186849,1.35198136641475,-2.08550589684683,2.85904983715864,-19.6598367298107,-5.24633918851669,-3.3315274991055,-7.15707004033629,0.109741560273505,0.756589461446765,0.687706691638596,4.18316103916504,2.28122864353509,-4.08361165414453,0.194170478915566,-0.579632283291176,1.34760190722773,-0.573743864862081,-1.39955613977054,1.97660299327299,-1.30400658889266,-2.22238953390206,0.40241957247099,2.39694229662791,-0.628197700254987,1.70501551067719,0.188666553512121,3.88668095962976,0.362358995103932,1.20721660644676,0.349529318556506,4.00164802581821,-2.28982908766329,6.10582643378257,-0.561358916068912,5.59127799350335,-6.79447226784623,2.8200459848822,-5.53924045040958,4.3197214510833,-2.44253248791483,5.82110534455751,0.388800381244437,3.06489309172775,-0.168027923673435,3.07371674742353,-1.50775054908127,-1.0371053971985,5.34032949538005,-3.14539219438029,-1.53217415400877,0.516567074851991,-1.2319561544,-4.25990707252231,-2.68072665490263,-6.19268078145478,-0.666781607018947,-3.37395067036459,-0.418526224614652,0.24477381134011,-2.08580579693034,-1.4202497401875,-1.64770605676995,0.281560964995151,-1.01602015375829,5.0027650793304,1.19289094962414,0.150102835233611,6.51870584745984,-9.10192211783078,6.07025611404424,5.87019152808352,-6.73055667127301,3.21684415800746,1.72571360867232,-0.861190317177716,11.7287633448946,0.408369079832937,2.46558515909464,1.54546065343266,3.18326337215967,1.97675802228969,0.849862075896453,0.318572592222154,-2.39472630071668,-0.253093229003298,-1.10021965722262,-3.82042765090864,-3.86232950126032,-2.13623212149105,1.08926930256212,-2.81782502536589,2.66884303581719,-1.71302070880165,2.33429327848762,6.16144540886853,-1.09471862659484,-0.519882872692506,0.333944626065659,4.96654087110301,1.68309051033657,10.1711719562445,-0.228822081455291,0.266016765506265,7.22338095820987,2.25942007627236,6.3613610931825,-11.9982265286876,5.57442435819985,5.06917221256299,-8.02441023164238,-0.100372617825087,-0.467958917655324,5.50399673730908,1.8452242098997,-2.11896236835491,1.4539699367383,-1.30266102690075,-1.92305188777027,-0.4381087183624,-2.02085087626483,-1.0690593286281,1.75010478519016,-3.31823173870862,0.954092035998656,-2.18241916048919,0.168755207304002,-5.11243324808447,-1.88592805034341,-0.133741806686885,-0.0765653989292332,-2.65651271318984,0.768175830914061,-2.54329452610455,-1.06676399919797,2.98389709911953,6.07540956587127,5.2660672303623,6.24649743168811,6.22628524998936,6.30116217193381,4.21250279050901,0.336518636194796,4.06845390171247,0.839362517731388,-0.784851209466979,-5.72399406310888,-4.62605872808899,-2.42950910579384,0.146768103979412,-0.683756365815952,3.57385258084969,-5.15067551494576,5.3972810118139,1.63439203607822,-2.62265726248097,4.82797562442238,2.54783642091479,1.69806726119123,1.34883226461397,1.67872994414347,-0.393201503626642
,15,0.171393553940106,-0.830383380618059,0.761979942938069,0.385117327631633,-0.755644377684348,-0.534101308165646,1.43636197448905,4.37439286863901,5.01491332915657,3.5465511357479,4.70746955768345,6.0329390600732,4.31239993821964,5.1051113458775,-8.18920310725571,11.3143342590301,-8.14746352809925,4.42496442929405,-1.02533513347771,0.578773377849302,-4.02751857458316,-9.08017617040468,189.445202603708,-3.45766923846577,1.2624977032192,-4.38355195432496,4.31021911019616,-4.56191284033184,5.80853503727894,-0.19088386034673,-2.8062688798741,5.01527393685774,-0.955183106447294,4.12966412231344,-0.126496318032423,-0.169905015179665,1.13789435194576,-2.70401181310353,-0.140845383285978,0.23715878863095,2.40417794155428,1.42304483419912,-3.06538501169598,4.86490326093508,5.33484123427615,3.41186812324077,6.23915161743071,10.9955995187192,-0.705146970347869,1.74228650220493,6.10485813378955,-6.28064053216394,9.52491450100842,4.2303641718122,5.61721401533214,2.22727847234728,3.26896157191277,4.57152022900664,-0.408161429430493,3.88838538062737,-6.01268715821061,5.03218519316852,228.476313926476,-6.77511454598744,5.06827133816159,-7.56620764412719,6.24244971634198,-2.3159914146654,-0.0653557513874148,4.3274334340631,-1.79787571100633,2.46283918464997,2.95003992360853,3.63833689672401,3.68542072236642,4.01074376163933,1.2063879707066,-1.29011129319224,6.7444192520461,-10.4208591145866,8.24757045074193,3.53705428978992,3.48789073730495,-1.57563333587086,1.31653734147858,1.5649814513481,-1.24590138630447,-2.92321417687799,3.8114557558124,-2.4674318097841,0.934822766697835,0.0785680152976056,1.88305434262065,0.712088378576482,0.929822525611598,-1.48574786237759,1.09028980195899,2.67113507215208,-1.06046703833317,4.07010846464755,-0.471926740991876,-0.625372928473553,184.022933152254,-3.01222517350379,-2.68845146265994,-2.76530915024068,-0.846256712327431,1.82944249455613,0.389142364210329,-0.880719675957153,0.106538186098533,-3.99671963955279,-1.24968514765669,3.29100287668598,-0.480126639446553,-5.05675053119921,-4.47491929275157,4.8963410508195,-9.72852442925387,-1.92546034044426,8.98582383284156,-7.05901411630293,1.37010586231327,2.31438671776596,2.70385987371355,3.0662532871811,0.238870039068388,3.26854779005816,-4.36783229598268,-0.840961774918924,1.58321670982195,-3.86685091457593,-1.8560260649715,0.764042864378098,6.32080658236509,-1.11076884323302,-0.229207601845701,3.28337598985217,-2.64994948703907,2.30154740203307,2.58653175710606,-0.401683693212817,2.87866476450472,0.830521404950559,-0.132750080389997,-0.42756840085076,1.33888560232708,-1.9618660464912,10.7876967825855,-8.28469302539406,1.01882799981968,3.32273653323773,8.5485689569482,-6.46386356563517,-0.330003989020497,10.18764217219,-9.48767865781156,13.5515196967594,-0.0727958019806465,-3.48826566370599,-1.08582277707228,3.34485198015363,1.66566951547793,2.53136463093279,-1.21646085133352,-2.70439750003516,-0.156257500693755,-0.0715481197698864,0.388312062028035,-2.9980426479483,5.33630239861168,-3.43040998132528,1.26096278062869,0.688285418841588,1.16462127387558,0.940208324578634,0.0276159764061958,-1.18213817011065,2.13526721767767,0.767309224748715,2.96354177043213,-1.27128877422092,-0.748638533621943,5.34250549512399,-7.25360113456327,4.51781498584478,9.64815390579179,-8.30755792901891,1.61277350311366,1.69562118672047,-7.1516567892545,11.4457145664192,0.251261565150799,0.957278331231464,1.09336692591751,-0.17924013747006,0.7320149940997,4.12290385900133,0.201670696621477,3.67580961227168,5.07357265689188,0.164800077107884,-0.182493979795709,1.15518386964641,2.87188988145272,1.90800984640373,0.345880886708073,-3.0759488151084,2.79465189610391,0.556673520207823,1.84088651428965,-0.131670121528259,-2.2425368289455,0.121028760858735,5.27233317704304,0.79156793496395,5.48985396945272,3.9692589482911,5.55496943409707,-4.96046336588097,0.414796666243547,3.30649656934747,6.79373768852747,-7.01900830964905,-3.99118523737661,9.06415604484164,-2.24235486020143,-5.67985833889634,-0.595734216764413,1.79980276938659,1.51681548163333,3.03942938401588,-4.73842819631545,3.13462242301785,2.67840474225568,1.43359647855959,-6.12226608937544,0.855145254695799,1.89520668242358,1.00668082418133,2.75216933138836,3.04867872720297,-1.8252091506447,1.85419182694113,1.19729030139752,-0.149333325670341,0.0682259527825408,3.42608631220492,-3.46963513052106,-1.04129175245271,0.890181730930635,-1.74467683050261,-3.7423209774679,-4.01077815100052,-4.68804989950968,1.13290647438953,-3.96872137680793,1.24184092200858,1.53929351265515,1.17502097448778,1.60353209895538,3.12349805630402,-0.804701019772892,-0.362786968851651,-3.18423601111908,1.25788800279315,-6.56428408491729,4.96420902704267,0.0925176753617052,0.487714783244428,-5.9469253092866,-2.14583886970195,-7.73754152004403,7.89216662881609,-3.62836067305443,-0.0861475612418872,1.76237760411868
,16,-0.2994404719675,-1.04031862355532,2.33346829408447,-2.14686009648676,-0.365935229799106,-4.20812774993738,-0.624960458728765,-0.114701447638708,-2.01358756612763,-3.5347400302735,-4.58934338038398,-3.86003181382011,-2.37414508487063,-6.11140731522482,0.57027689821598,-8.84644175714629,3.60103120254053,-4.26127398344761,0.573193591678319,1.1742715928699,-4.05824706708745,-2.05144285771439,216.402734826695,-4.72100520212734,1.1631070579574,-2.69267721636288,6.71754505441095,-3.23030046647136,3.4732149782576,4.33271443140666,-1.13253530908014,3.80569723743429,-1.37515863826866,5.13160313968683,1.6278674638711,4.67412891716367,0.38330925829041,-0.653247217239368,2.46639574686878,-1.28402749062298,10.0533391015215,1.21119974919065,-1.13318542068964,1.20618038197063,5.70554011593413,-12.3791320667965,5.54513407757167,6.22558209758608,-3.91071052459301,1.79547159422555,4.14367089619691,-9.65251906810045,6.03338840037031,0.0973571065906071,-0.758695561106833,3.99878772381317,-1.66000225788366,1.15805653359621,3.07627137141026,1.18332517722911,3.25319048653364,-1.81489812667087,266.254714647728,0.410424550344487,-1.62350044685036,3.0688544460254,-2.65462409333577,1.97098775096083,-1.42968698806089,0.795988844877684,0.386918316100946,-1.50731365737147,2.63382758793159,-1.14899321821849,0.747594209816725,2.18060589675952,-3.07321860781622,-0.779292742662619,2.10366978660704,-1.36200790364046,13.8858142581034,2.49324573336662,-8.21495135382838,4.26954963993967,2.92328590495117,-3.88958885185502,-1.59140529310616,6.83259798436939,-4.93395060744479,1.18852945326489,2.16059149748116,-1.20077438421413,0.0176910496079472,1.91773533014657,3.1929590555219,-0.695162634108328,7.26601297460365,1.06584573678629,-2.09035971750154,6.204493657493,4.08501782036865,4.84749139771066,206.924894291516,-0.247590868810221,0.982622393401925,4.68124720215383,2.12555664502088,2.30797507863099,3.23857336758374,2.19836174543025,-1.31493393597248,-0.904799820169956,-2.3907880582824,6.8303392362086,-7.53711046105218,7.22615947993609,-10.8443566377023,-1.46364851299722,7.46719213957658,-10.2348084567684,0.825336661982419,9.74803411070161,-10.060265436804,11.4784235488237,2.10851349918494,-2.51921777089046,-0.835875621090963,1.51560959571998,-1.59719967667024,0.423523763319281,-4.98468705911819,-0.22346245621975,4.26131043092164,2.38621977415096,0.341652212292956,-1.61012540356978,-3.23483725079859,-2.37839805023577,-0.141624994389986,1.44975234682579,1.41120087970103,2.31227028872263,-2.37363393432179,0.84733518671419,0.640520750596806,-3.24523993989442,-0.208518398685101,2.4206274674284,7.37446239857854,-6.21891520185363,0.71809184232734,5.65147945121635,-12.0497216956887,-2.17321800958871,10.4972143772538,-11.0361531384124,-0.133349596027074,-1.4568263806209,2.26111902974208,2.76497191506587,0.959908207457829,1.79446620966655,3.43472304082525,5.31962018565309,2.02847625250524,3.63154912038181,0.232204378398819,0.575329156783027,5.04684283544702,-3.25835104777207,0.105756437418222,-0.624736831589871,2.04648598321592,0.292863033774665,0.693325606368035,3.61355265066823,-1.75980326240824,0.19243623865168,-1.23116761024949,-3.52859348206584,-5.68175518559792,3.06603723637409,4.5278303205946,-14.3419261434751,-1.68097119821778,4.39058042440729,2.50827951765086,-4.30206831230271,9.94336996215725,-8.19806291317991,3.60680319906533,0.623875207302262,3.40273401002605,5.6216817588288,-1.40118327393611,-1.30354720617152,3.59458460408086,-0.254719549048332,-1.13467113089382,0.291360164975231,1.95249515735713,-1.59316708055394,0.877909374989031,-1.49519405366755,2.09105878638729,-1.91076557599763,-2.61045690067795,4.07495704877692,-3.69488597146892,-2.26527547253909,0.344861050960844,-0.191132621545421,-1.33418596772526,0.0409057178358125,4.60664337980552,4.08554510517752,4.29954929960104,-0.393352582558691,5.76806424976303,0.380954522486718,-3.2849233263355,1.65798967274623,8.2312334112562,-8.90051052943045,-2.73503417540678,1.10943256630298,0.394378124008654,-4.09287999107892,-4.47155823011235,-2.08250244719284,3.86582201069496,0.46069766839264,-1.73530343281391,1.33012961577333,-1.67065893452445,0.0854404291658284,0.556346029006363,2.61055988658018,-1.0307040974908,2.49779798074132,-0.664560511328546,-2.45372712048948,0.174124431000109,0.661464071451519,1.43312805315009,-0.899102245207359,2.45388144996059,1.73070865420459,-2.79768186896854,-2.43130087209602,3.40769176281447,6.05292816614565,10.6677695116114,8.85722719058595,4.45279955504702,4.25676735450998,2.70297819990947,3.12616117781545,0.510780675158912,3.62640228964892,4.77394288855294,1.17410551436524,2.35909582642034,3.19998921069282,-0.712069300303938,3.32382649411875,2.53608244703628,9.92326027703257,-2.63170602269383,6.22675925906333,4.64211910967651,0.632264848087289,6.09738389773156,-0.40233770237046,0.817738818789621,1.84638661083272,2.98970479889613
,17,1.22803030358364,-0.344021241372047,0.867281978867595,0.400921416970959,3.27051742497633,-0.89058619380603,-5.86417606683199,-1.16149472005691,-3.84816102216519,0.46687590710917,-5.15541441991218,0.0324085019578888,-0.370329758841763,-7.96469905626327,5.17847640430955,-9.53036422904552,4.45954638901139,-10.4811815419794,-1.55317881245082,-0.513385397435286,0.0166942717187339,-6.37220737109965,237.883711002848,-4.5939994525761,3.28672208100943,3.02579537305337,-0.789030491851008,1.60899962392978,-0.492485601511362,-3.28505242892697,0.819384648117193,2.21050332568893,-0.246818281331798,-1.17921653774738,-1.73996237994379,-0.679206434833759,0.0824837855075202,0.885317655223844,-1.94803449094661,-1.67923972936978,24.4368275664342,-2.78522924324034,1.39196082861736,2.71870679056929,-0.64135661301134,9.54160076745984,5.36118630804822,-8.50168223549008,0.335395918255017,3.68256600836048,-8.52289252631908,6.39395326027488,-8.27994858412558,-0.0211538757553171,-0.775482416048362,1.11647383679974,2.81628824004156,-2.58703764968323,-2.30053456643009,0.169820995933605,-0.711227755747586,-7.42242534667503,296.582487690317,-0.149463361467951,-6.33591068076294,2.64536980096091,-4.12067514929868,1.13102456174693,-0.352455200470558,-1.64241725570446,1.40016445844913,-2.57799847289243,2.63341126314708,0.521885725490392,-0.519471769660413,0.758960485284661,0.813480043375876,0.0400449486141952,-1.10289492392212,-1.28140313925906,30.1283726893362,-2.76421565758801,-0.36029022316734,2.65506404697362,-10.9813251608507,2.90183711334021,4.64821556860397,-7.41867575172955,7.49531620617927,0.399496003126842,-0.162588943112951,0.593755183452231,1.36141497475228,2.44233637472962,3.16131994281022,-1.22088387002486,6.33388548210178,2.11133738757826,-2.62973477917876,1.65567208634729,-2.75735757393386,-0.780621234215687,227.99349317715,-4.2620835431967,-0.565567873794407,0.361688065013823,4.57315765306612,0.335555217566707,0.985978583043561,-0.483516494127343,2.71855660113533,-3.91966282626845,2.52961434956615,0.687795810582884,4.34214771426059,-6.15533214100515,2.45474742420083,10.8844870179219,-6.22330464647166,8.95667693951827,7.97737106034128,-9.11030808315991,1.28426110928012,0.0716945562198816,0.92866291018936,-0.38085698911982,-1.41753628959668,1.75789521415572,-3.02093174361971,-0.444943781096299,5.0529174240628,0.696282372832684,-0.591700421291534,4.05636686616572,-2.97979750358854,5.83541514510853,-0.336205625442744,0.66758273240066,1.24759503637779,-2.10888871758061,-0.137860044571426,1.99418286243417,0.379805341819065,-1.44157023744856,-2.34874504869958,-4.58122815271827,1.2917855770811,-4.42691308818712,10.5107612622005,0.323341486074241,7.68331018367007,-8.74840392232363,-4.383915388069,-2.74192457144773,3.34783852181999,-12.6692033788127,7.33303586710599,-4.79833519929025,0.806151789955493,0.92435835824017,1.98999566948123,-1.82251197911546,0.652058973091243,-4.38252608376024,-1.13685943759265,-1.64320025697043,1.01773391654615,0.864312075184444,-3.40684054874919,-1.24072687439502,-2.64670287851504,0.58647852192189,-0.711149576424305,-0.90761821506203,0.934232149611944,-0.334494412984441,-1.52529995996883,2.61338846652689,-2.18430627081216,-1.95039552543176,1.13051778556064,1.71966591310138,3.24527721151208,5.16178569146905,-0.13970521650117,3.66913338019867,1.98733485634511,-0.31496773792378,11.3084046212643,-3.2362517709289,3.24510181574442,-2.44530798793267,-3.89600746442966,-2.98954594522502,-3.05350100354281,-3.14418313757324,4.84337027080073,1.69903063289394,1.60225482055193,-0.624255907276165,-0.469751168603125,-1.48682031386579,1.5721972330457,-5.16162827500375,5.08373893787257,-3.79393997765555,-1.0553304826135,3.05026429817235,-0.264295664114798,0.676086144466808,-0.324280700127929,-1.41623258519576,-3.79821063318741,-4.39003583122212,3.90454478519405,1.73604992320315,5.42688641578934,-0.736976874384254,5.84386478246915,-7.7993520203504,-0.607774769842763,5.29399650361211,7.09527757645947,-12.6906319162099,-3.14624621740859,7.95995903214589,3.62710408586736,4.73015735139415,-1.30415924264344,1.03621169955841,-6.75715220672873,-0.386318479937927,-1.04965487743402,3.32013103509462,-3.30349778781238,4.80785201266508,1.07662860086839,1.91356296418417,-2.98098138418527,1.81457917604848,-6.10470548790954,-2.74957975426196,0.783125649767499,3.5216505983376,3.12090505466131,-1.71516477244631,0.266267903669814,2.26880065853038,-0.519180149106433,-1.75756074390301,-1.48499172307402,5.92324465517913,8.36568275499485,8.10451131989657,7.83156686494476,1.69474330708863,2.19333193414423,2.89290770038588,1.43711915220365,-1.82269972285394,6.13890007171585,2.26074971458729,0.540058849054276,3.50035876601169,-1.99921966894453,2.89825444686721,-2.33025180090135,2.75074218372993,-8.3749281512255,1.08924293550854,0.871328538495618,0.639787105365031,3.50432423223401,-4.97223128162887,6.67071258638543,-0.0882657218407985,-2.83079257660165
,18,-0.142724765557432,2.23661432595691,-1.13429142097175,-3.05050911207672,-2.96993905775298,0.819611617576811,-1.44650524191866,4.77813511006752,6.53102569638259,7.59564847076354,6.34621355491709,11.2735028860548,6.37049662014397,2.82528393661642,-2.86808414831285,8.26402593069679,-8.0495621159007,11.6792623656097,-0.324533199834605,-1.97993936201965,-2.55296242819077,0.971327566631771,258.778030124253,5.62185658692351,0.361591465580204,-1.18632187371441,0.0260645694766026,2.63384726581626,1.04375581764725,1.6452026789957,3.02763370108141,-0.0898458192477847,-1.5016696069365,1.33471121537013,0.442292537892627,0.315796763522485,1.6856641643476,1.23079880039586,-0.4290516187516,-0.795263479620189,43.8737073568986,0.428569300228446,3.99638871416482,2.71427557396646,0.676823751653501,11.0778110534425,-14.7857031021304,2.77749627809408,7.52507606125755,-7.77001798427,4.60710145794519,-1.76513544426598,-6.82979507113805,-1.84327779009254,-2.98793242006695,2.30238222930348,-0.42853829583828,-0.564850106987251,0.78766473996302,-0.322525871983089,5.28714538307804,-2.73347153671921,323.647575736299,6.05138539369182,-3.10599763595565,2.93105244667822,-1.33224572415929,-0.562995593598771,5.91731585548541,8.27658743444727,0.0225149989400961,1.90246694172492,-1.95997072561704,-1.30934308710857,-3.12440942269723,-2.62341092007,0.0585819707525843,1.43657707397506,0.994201281416281,4.13939924013448,48.7568434959517,1.79042971595209,9.52430325190335,-8.72842026271201,0.0731067865026489,12.733268702917,-7.3451248738852,5.38196999484262,-1.95354579351442,3.41336432079697,-3.10902875311785,-3.97116784180298,-2.61311502628678,-1.73844267105096,0.0980230931254482,1.46271097758245,2.4762184918136,-7.3679958179082,11.5323259815059,-6.37164110169715,4.22977381207966,-1.99110345795498,248.185128455386,0.637783012018645,-0.274030799845605,-0.768805073972089,-0.102005258318059,0.577298149811668,1.13196138489639,1.42183911246229,0.99380375121018,0.464482818766555,3.02098901957515,-0.817138788044758,-1.58464036755095,-0.908798989618845,6.02336829208434,-9.23289051060056,1.72675966059342,36.0155100890415,-0.868441097765299,7.86878920025265,-1.45245342366934,8.29940154082442,1.79169085847207,1.17617231397298,0.911853551366676,2.21248382596968,-0.809595427744625,1.71107937906891,0.196978691229106,-4.08276686320687,0.107563804530855,-1.84967210382047,-4.49401141744511,-2.87953191466477,-0.807154038320277,4.04369757213681,5.14532027492169,2.2230718587366,-0.416159140040691,-0.234518367746205,1.75377750681946,2.97396500681316,2.15497792418319,0.794563212215962,0.0865757134147316,2.65680769644632,-4.69617653839487,11.4992474415835,-6.31052081496409,-1.13599440426924,10.3587448751387,-4.98710540769798,-3.01965088973384,-3.93823435930608,15.6724475808628,-1.26412790840459,0.637530582018826,-1.45919890018968,1.12821114997496,3.03264385516468,1.69417003288618,-1.13944291480675,-2.45726784619865,-3.74782626698152,4.2856442574157,5.41852405612826,2.59466737769253,7.90993922443386,1.95381242301073,-3.20723044077204,0.533699808491747,-0.431491431748782,-0.745500795367207,0.362232890747691,-3.33513902840878,0.956471885160681,0.426892908679747,3.17620840734162,3.09378513880802,-0.156225538416948,-0.765079746429365,0.310763498196138,9.14088980635097,-4.6044604451572,-4.75608440483575,6.01895660081937,-1.29873215172029,10.8304966749802,3.52756956549047,4.22880194010622,-0.0216654467658373,0.734831709709397,-0.795877113102051,3.77214949793233,1.92021775766534,1.69436769117374,-3.14506198364325,2.63290926934724,-2.45212683287764,-0.412779709569804,-0.885192357330197,0.981626541773039,-2.32914117465725,0.814430284829996,-1.73868681766407,-1.04550394412263,4.28187561321101,3.4688819157418,0.362637899864694,1.3108959173087,0.882075055936184,1.39192890854565,0.403851977606337,-2.67670666514505,-1.00540206947926,6.53608651915192,-5.35176453402073,-4.10870283315126,2.64299979576526,-9.90105346319979,-3.25094803031061,7.8302715367995,6.01242304763355,-4.88837223503515,-4.98374479728636,-9.62954696689076,-1.0635352469435,-0.354961992255539,4.00805421899167,1.83160815763858,-3.31233766496371,4.11173771659742,3.86249995107164,3.20094794126362,3.6254285738778,3.82149724506735,2.1449317012648,11.3118057386737,1.6256936264831,1.48650958920916,1.51290165960881,-1.28866265741453,0.859439727186327,-0.940877368364909,-4.23363140551646,-3.30531724559933,3.21997598997223,-0.101079439981277,-1.90722423350417,-2.64277547013944,-6.61929398685788,-8.74145099201724,-7.42319893189415,-8.01115518640927,-0.950243549866627,-0.236501039648829,-0.136142268481763,1.34328759450409,-1.18336818218404,0.433655529222051,1.66037963498184,1.11759732569453,-1.38172899673555,-2.53998578166966,-7.07210392102934,4.00556960400399,2.91813217132494,-0.263689795397113,-4.1650895735761,4.8988571155387,1.21457409968571,-4.44976792154921,0.342782766608252,-2.47484788109341,-0.834803245212697
,19,-1.85393516534714,-2.64244756160315,1.76330974281836,2.03365111059384,-0.331509521847693,-2.04938249992483,-3.61389315800488,1.4722398969252,6.19460698122202,0.624265729634317,0.527310355017107,3.02342821057709,2.73513981087353,1.61165253962736,0.794642808209119,-4.82889953791482,7.79342761542557,-8.15378770959842,-1.06084569481936,-0.135771768792438,2.67819969416405,-3.70054905188226,272.88825576927,-4.89844586344316,3.18676936188149,2.29758026804393,4.59843961114666,3.05294361998267,-0.974390874448545,1.6741595182707,-0.458376169422991,-3.18748149556222,3.18681525487136,1.46304772550593,3.44806345358393,-0.263319935398613,3.41199532166002,3.66541668139143,1.37217703446368,1.92607346855993,87.7875633868775,2.59289697693839,0.739781157435118,2.24088922008605,6.57345639631239,-6.38696407666794,3.82488777158233,8.65651147566177,-2.72165042428423,5.04780760368976,3.22016256653023,-3.93421513672456,2.14372797908891,-3.77083964622125,-2.16510637625515,2.56486022562785,-2.1645948799769,1.1311967355914,7.73501327712393,1.85629125117657,6.41408513523902,-3.58997122270785,347.533853137822,3.0045339591843,-3.6301797592705,2.87888903466637,3.83091497804344,-0.885911608112565,6.91787335020354,10.1102817365177,6.31341591335013,-0.00401936276921333,-0.070703849803067,-0.33671066648094,-3.18580609446735,-1.02817891080304,1.21341241860728,-1.02370994045987,-2.73021795221075,7.65830023614717,88.9113879397878,5.24833926474639,0.50895201577805,4.29147336817732,-3.67911032649545,6.25913634601011,-4.51059642322616,11.4556198184432,2.98916642480117,-1.65891486451028,3.51541712104518,0.634347609783617,1.50092365316141,4.54442399303753,1.27751492257403,-2.67754170673516,3.33958554192213,1.45606934791203,5.12784841439588,4.1514649133851,-2.21953628564961,4.6343200479846,268.261122462796,0.508803873442048,-1.44475447394871,-1.50769506274946,3.31429399199578,-0.492228715354486,-0.901142732989683,1.70066422748278,2.12700351804187,-3.18170398248003,7.92443909106532,-3.20429233728964,-3.32982291874032,1.6193256391557,0.376782133735105,-4.47984485835559,5.23832167189039,59.0143727295158,-4.6736353805959,0.0465585180472772,2.52420097734421,-4.1961694594911,1.48702749390031,4.86698801901821,0.767847886059371,0.475629098419176,-4.22129764185001,-4.18904597504252,3.13298965668946,2.68473937922818,-4.22657155990873,0.73433529944441,-1.79551600364175,0.910859751757471,3.48113369189605,4.96769758026448,3.72711471555385,6.28810208762752,-0.0444635117028156,0.853098892014259,-2.09920814445741,-2.01451752527601,-2.49208108278617,-4.75699376933198,2.03719145716605,-0.44031293136004,3.52336470981345,-4.26175675021386,-0.617765844145652,5.10324372176001,-10.2542667236589,2.00438321384172,-2.28036547781812,-6.71073137261374,6.66813484980275,3.07449780660727,2.87744076841864,-0.298229283063847,1.46128902392775,-1.22359089356814,0.187663725510447,0.874188574561231,4.85038231794715,-0.547170749472116,1.47894679384308,0.880320292322722,1.99403353067964,3.84970951328751,0.0943718439211807,2.6653493751478,7.40426076259109,1.37958718593109,-1.7941002786024,1.6838316460794,-0.88422511281442,0.699036891890955,4.17618650636496,0.998492023827112,0.192973046098814,-1.2632831761839,-2.08542207161599,11.2447921905982,-2.53828160943567,3.23815079939777,7.0963285694429,8.70786545925648,-5.82966665636286,-0.372604831443368,7.6121956269094,-6.69134451675791,2.77080016945865,1.92866300261039,7.15817788684353,2.76036048814149,-0.374867223177262,2.51797646469322,3.19556817359489,1.78678301789387,-0.910129831673657,6.89489761770801,-0.0468646847580203,1.68581958315735,-5.95309307027173,0.970126917314246,-4.30954291370608,-2.49500506073946,-2.19281665340941,2.23041082727013,-2.03905174477541,-0.112788483001623,-0.482288226784476,-3.21699912099393,-4.86585429661682,1.57663444991522,-12.9154151931966,1.63000432590206,3.80132778734742,6.87420030608837,-14.2954322115415,-0.590163267043408,5.60643410523699,-6.21209810138816,-3.3635253568259,2.31046249378551,0.513467753221903,-6.97051051008884,-3.21662631435584,-3.02969087328711,2.34364935302438,2.0794366364812,-1.10333435534449,0.263382729901423,5.21092375803482,3.58351898861793,7.48749694344406,-1.28110263451799,7.17640946540951,18.8669405092655,3.35046056393003,1.34183636339685,-2.72106292745775,-1.67569516727008,0.663013733670596,-2.8072279147932,0.443691761475293,1.65252971142672,1.56129791829289,-0.142773647990452,0.539186315006191,-4.49607442597471,-5.01038546223526,-5.92897792513622,-3.59107808191038,-4.32585822743931,-6.74824346689866,-1.37291337137322,-0.998431093648378,2.40723226970476,0.0664860069314273,7.38601351788429,-0.110453623528883,2.29354333115725,-3.04260179280118,2.23012196420359,-2.57186059176911,6.69586727773321,-6.25450937829783,-0.384923648870881,0.727125015840556,0.657719168853873,-5.44887625382898,4.5888669884921,-8.73611743082029,2.90427711003349,-1.28933831073937
,20,1.76015928625202,2.88034312515356,-3.50348766693423,-3.20403157339615,-11.1256911107021,3.19933105210112,-0.532730610304498,4.89270189319859,6.38342074316597,2.0795087526667,3.66446273381325,2.49765811224779,5.13962972509353,6.6265031669991,2.50696539810133,-0.633580848035763,5.59496138468421,0.733948940560822,-3.86512984810361,4.05414740876222,4.49971456257435,5.40193378083313,293.869377869098,9.65335849638632,-1.66959804841599,3.65012309831627,-2.58972628119045,2.13077068074244,-0.754219641771215,0.487215642771389,2.22514320368873,-1.46672284688384,2.69774513173479,0.56366102623997,1.59412961626549,2.2888597836145,3.06740825017778,3.6157115029223,-1.9508705043545,-3.18042633180949,149.498004252904,1.69369275810732,2.05356380067224,-4.24528212277482,-8.99504535352253,8.36167327399153,1.46153781882549,-13.6939483777073,3.07170799892174,3.6092708577853,-8.37155530568725,-0.291149517258873,-9.82899686807741,1.55372113457952,-1.703739375444,8.35779373668129,-2.72581077342238,2.2635367848834,8.8031228820978,0.727342723255333,-4.90574925990859,4.08035250033799,377.375536418885,3.67700261004256,-3.3638213978038,1.97504571377385,-1.93546109267663,2.92696433523543,15.4105937367535,29.1450406949589,-2.01620892992059,1.6706941418397,-3.06963274895043,-1.98049843943909,3.28990827064081,-0.154208861953066,5.00022755685359,1.66705731330194,-0.254806223166725,3.01950405375464,146.32188038466,0.426545994043408,9.31979944888599,-1.59041290812183,1.22497002501404,8.4363169881567,-2.45358470111114,7.49172237126277,0.764740416834229,-3.80087521148289,1.05781725110683,-0.409562500874017,2.13004959697128,1.8456230567449,-1.26718408375746,5.05931644978182,2.45214726764652,-1.76651484624745,14.3208954234119,-2.60741479910121,-1.453989285023,-0.622469031124183,287.46414766312,-0.0338044080990585,2.09525669921732,2.7570525787005,-1.92563412957588,3.29137936166217,1.94784278916723,-0.260636044274634,2.51028550737055,-1.29915013341724,1.44912376036564,2.04867322962446,-0.00095702610360604,0.786639640878093,3.5517395256511,-6.34070088028147,0.187315400477928,124.858365175078,-2.75945144164234,7.60808559011048,-2.05016414723286,7.63442773009638,1.64426225092757,1.22854083574612,-0.654096996599947,0.185197683520073,0.955005463510588,3.42291656706311,0.340064814797188,0.653765716398993,2.97432705832171,-0.0129868160352089,3.4125528996351,-0.491923338626748,3.70235066225041,-0.37066203449649,1.57797339822309,4.08328111953551,1.80447102550852,-1.25803019477644,0.823736850477871,3.72042689983664,0.944035624049775,-2.47076264175348,-2.85066611633147,3.35528968815788,-3.4515848906135,-1.41510483695447,-1.02840925469263,-10.2337320362039,0.852730411311768,5.71267390644971,-10.492155011716,-0.707091992762798,3.60535490363327,-9.12517212748662,0.565011822109227,2.37420741178175,-1.78983970916124,-0.914439828529339,0.121514711631789,-0.00768792911003402,-1.91042383995955,2.17296259288423,-2.17623870612715,0.987365938146468,-3.01847559343196,11.4500284307965,0.488317416324207,-0.780068896517605,20.6176688890632,-0.461391356618606,1.11292044617085,0.438585675558897,0.583961653420374,0.351908016182733,0.337010579273283,-2.18331411964573,-2.63070062377528,3.88294180045841,0.69474317831191,-6.84080404147699,5.15679036543133,-0.908579021076093,1.12850534618565,1.41816629483037,-8.96527010877935,-3.29575243414592,20.333095276847,-5.07893403434036,-1.11020547884891,-2.46678696870322,-1.32344128553132,-2.1173042562109,-2.7767095966633,-2.58832569440938,0.767573572362835,-3.40636041143716,-1.45141106704523,-1.65897183913512,3.98080121537623,-1.7288684809414,-1.68129875158002,-0.254636264827695,-0.103284038027596,-4.88894724530746,0.72584603914629,2.73725767211954,0.821461295080098,-0.179702661655028,1.25326104490887,4.60880081533605,-0.892885677488266,-2.96190631330683,5.40160305032759,-6.04315058314023,2.68313416808451,4.54780902304447,-1.40771596109744,-0.885646803349573,-4.64329104575245,-3.45472455768731,2.33011528992529,-10.0416144068581,-1.6293133365416,-1.64296917705951,-0.0965089519668254,3.41464745275061,-0.609904357051619,1.73582963757099,0.93948681222264,-4.58588988311112,-1.41818684521331,-5.89580995215147,9.07813396302072,-0.988475289938378,-3.73335225998471,38.2627494928906,1.21250963748889,-3.11656430195399,3.14268342371679,-1.99899374753295,-1.85218576744091,-0.491453707903474,4.76237872649244,0.22506026762585,4.11208364064487,-1.66454487356214,-0.843401531673862,-0.947705643638074,-6.33301708110912,-7.90290322696183,-8.28925786688569,-3.45782058708437,-1.60437291740254,1.38059625082451,-2.11817484002177,2.22042754842732,-1.51372581838268,5.71818111206903,2.63778535019355,1.75411184606628,-0.26365467245887,0.102277777482414,-3.2666553371464,1.76378890012529,-7.80809811667132,1.45796349609554,0.532017872138113,-7.50794274467762,3.22582366934876,2.2572552418419,3.01628679010582,0.667253827704371,4.21184717037659
